; generated by Slic3r 1.2.9 on 2018-01-28 at 22:44:12

; external perimeters extrusion width = 0.30mm
; perimeters extrusion width = 0.40mm
; infill extrusion width = 0.40mm
; solid infill extrusion width = 0.40mm
; top infill extrusion width = 0.40mm
; support material extrusion width = 0.30mm

M107
M190 S75 ; set bed temperature
M104 S215 ; set temperature
G28 ; home all axes
G1 Z5 F5000 ; lift nozzle

M109 S215 ; wait for temperature to be reached
G21 ; set units to millimeters
G90 ; use absolute coordinates
M82 ; use absolute distances for extrusion
G92 E0
G1 Z0.200 F8400.000
G1 E-2.00000 F2400.00000
G92 E0
G1 X89.132 Y77.470 F8400.000
G1 E2.00000 F2400.00000
G1 X90.081 Y76.433 E2.04339 F2340.000
G1 X91.132 Y75.501 E2.08678
G1 X92.100 Y74.797 E2.12373
G1 X93.312 Y74.085 E2.16712
G1 X94.788 Y73.428 E2.21702
G1 X96.126 Y73.005 E2.26036
G1 X97.503 Y72.723 E2.30376
G1 X98.693 Y72.598 E2.34070
G1 X99.500 Y72.572 E2.36564
G1 X120.500 Y72.572 E3.01409
G1 X121.098 Y72.587 E3.03257
G1 X122.497 Y72.723 E3.07596 F2340.000
G1 X123.874 Y73.005 E3.11936
G1 X125.409 Y73.504 E3.16922
G1 X126.689 Y74.085 E3.21261
G1 X127.900 Y74.797 E3.25599
G1 X129.030 Y75.632 E3.29940
G1 X130.067 Y76.581 E3.34279
G1 X130.999 Y77.632 E3.38618
G1 X131.703 Y78.600 E3.42312
G1 X132.415 Y79.812 E3.46651
G1 X132.996 Y81.091 E3.50991
G1 X133.441 Y82.424 E3.55330
G1 X133.744 Y83.796 E3.59670
G1 X133.902 Y85.193 E3.64009
G1 X133.928 Y86.000 E3.66503
G1 X133.928 Y120.000 E4.71492
G1 X133.902 Y120.807 E4.73985
G1 X133.777 Y121.997 E4.77679
G1 X133.495 Y123.374 E4.82019
G1 X132.996 Y124.909 E4.87004
G1 X132.510 Y126.002 E4.90698
G1 X131.817 Y127.224 E4.95037
G1 X130.868 Y128.530 E5.00022
G1 X130.067 Y129.419 E5.03716
G1 X129.031 Y130.367 E5.08051
G1 X127.900 Y131.203 E5.12395
G1 X126.501 Y132.010 E5.17381
G1 X125.226 Y132.567 E5.21678
G1 X124.076 Y132.941 E5.25413
G1 X122.497 Y133.277 E5.30398
G1 X121.307 Y133.402 E5.34092
G1 X120.500 Y133.428 E5.36585
G1 X99.500 Y133.428 E6.01431
G1 X98.693 Y133.402 E6.03925
G1 X97.295 Y133.244 E6.08270
G1 X95.923 Y132.941 E6.12606
G1 X94.591 Y132.496 E6.16944
G1 X93.312 Y131.915 E6.21283
G1 X92.100 Y131.203 E6.25622
G1 X90.969 Y130.368 E6.29963
G1 X89.933 Y129.419 E6.34301
G1 X89.001 Y128.368 E6.38641
G1 X88.183 Y127.224 E6.42981
G1 X87.585 Y126.188 E6.46674
G1 X87.004 Y124.909 E6.51013
G1 X86.559 Y123.576 E6.55353
G1 X86.223 Y121.997 E6.60338
G1 X86.087 Y120.597 E6.64680
G1 X86.072 Y120.000 E6.66525
G1 X86.072 Y86.000 E7.71514
G1 X86.098 Y85.193 E7.74008
G1 X86.256 Y83.796 E7.78347
G1 X86.556 Y82.436 E7.82648
G1 X86.929 Y81.286 E7.86380
G1 X87.585 Y79.811 E7.91366
G1 X88.298 Y78.599 E7.95707
G1 X89.104 Y77.505 E7.99906
G1 X89.410 Y77.694 F8400.000
G1 X90.333 Y76.685 E8.04129 F2340.000
G1 X91.357 Y75.778 E8.08353
G1 X92.295 Y75.097 E8.11932
G1 X93.474 Y74.403 E8.16156
G1 X94.916 Y73.761 E8.21030
G1 X96.219 Y73.350 E8.25249
G1 X97.559 Y73.076 E8.29473
G1 X98.712 Y72.955 E8.33052
G1 X99.500 Y72.929 E8.35488
G1 X120.500 Y72.929 E9.00334
G1 X121.079 Y72.944 E9.02123
G1 X122.441 Y73.076 E9.06348 F2340.000
G1 X123.781 Y73.350 E9.10572
G1 X125.281 Y73.837 E9.15442
G1 X126.527 Y74.404 E9.19666
G1 X127.705 Y75.097 E9.23889
G1 X128.806 Y75.910 E9.28114
G1 X129.815 Y76.833 E9.32338
G1 X130.722 Y77.857 E9.36562
G1 X131.403 Y78.795 E9.40140
G1 X132.097 Y79.974 E9.44364
G1 X132.663 Y81.219 E9.48588
G1 X133.096 Y82.516 E9.52812
G1 X133.391 Y83.852 E9.57037
G1 X133.545 Y85.211 E9.61260
G1 X133.571 Y86.000 E9.63697
G1 X133.571 Y120.000 E10.68685
G1 X133.545 Y120.788 E10.71121
G1 X133.424 Y121.941 E10.74699
G1 X133.150 Y123.281 E10.78924
G1 X132.663 Y124.781 E10.83793
G1 X132.192 Y125.840 E10.87372
G1 X131.517 Y127.030 E10.91595
G1 X130.590 Y128.306 E10.96465
G1 X129.815 Y129.167 E11.00044
G1 X128.807 Y130.089 E11.04263
G1 X127.705 Y130.903 E11.08492
G1 X126.339 Y131.692 E11.13362
G1 X125.098 Y132.233 E11.17544
G1 X123.983 Y132.596 E11.21164
G1 X122.441 Y132.924 E11.26033
G1 X121.288 Y133.045 E11.29611
G1 X120.500 Y133.071 E11.32048
G1 X99.500 Y133.071 E11.96893
G1 X98.712 Y133.045 E11.99329
G1 X97.351 Y132.891 E12.03559
G1 X96.016 Y132.596 E12.07780
G1 X94.719 Y132.163 E12.12002
G1 X93.474 Y131.597 E12.16226
G1 X92.295 Y130.903 E12.20450
G1 X91.194 Y130.090 E12.24675
G1 X90.185 Y129.167 E12.28898
G1 X89.278 Y128.143 E12.33122
G1 X88.483 Y127.030 E12.37346
G1 X87.903 Y126.026 E12.40925
G1 X87.337 Y124.781 E12.45148
G1 X86.904 Y123.483 E12.49373
G1 X86.576 Y121.941 E12.54242
G1 X86.444 Y120.579 E12.58468
G1 X86.429 Y120.000 E12.60256
G1 X86.429 Y86.000 E13.65245
G1 X86.455 Y85.211 E13.67681
G1 X86.609 Y83.852 E13.71905
G1 X86.900 Y82.529 E13.76088
G1 X87.262 Y81.414 E13.79707
G1 X87.904 Y79.973 E13.84578
G1 X88.597 Y78.794 E13.88803
G1 X89.381 Y77.729 E13.92886
G1 X89.687 Y77.919 F8400.000
G1 X90.586 Y76.938 E13.96995 F2340.000
G1 X91.582 Y76.056 E14.01103
G1 X92.489 Y75.396 E14.04567
G1 X93.636 Y74.722 E14.08675
G1 X95.044 Y74.095 E14.13434
G1 X96.311 Y73.695 E14.17538
G1 X97.615 Y73.429 E14.21646
G1 X98.730 Y73.311 E14.25110
G1 X99.500 Y73.286 E14.27488
G1 X120.500 Y73.286 E14.92334
G1 X121.061 Y73.301 E14.94065
G1 X122.385 Y73.429 E14.98174 F2340.000
G1 X123.689 Y73.695 E15.02283
G1 X125.153 Y74.171 E15.07038
G1 X126.364 Y74.722 E15.11147
G1 X127.511 Y75.396 E15.15254
G1 X128.581 Y76.187 E15.19363
G1 X129.562 Y77.086 E15.23472
G1 X130.444 Y78.082 E15.27580
G1 X131.104 Y78.989 E15.31044
G1 X131.778 Y80.136 E15.35152
G1 X132.330 Y81.347 E15.39261
G1 X132.751 Y82.609 E15.43369
G1 X133.039 Y83.908 E15.47478
G1 X133.189 Y85.230 E15.51587
G1 X133.214 Y86.000 E15.53965
G1 X133.214 Y120.000 E16.58954
G1 X133.189 Y120.770 E16.61332
G1 X133.071 Y121.885 E16.64795
G1 X132.805 Y123.189 E16.68904
G1 X132.330 Y124.653 E16.73657
G1 X131.873 Y125.678 E16.77121
G1 X131.218 Y126.835 E16.81229
G1 X130.313 Y128.081 E16.85984
G1 X129.562 Y128.914 E16.89447
G1 X128.582 Y129.812 E16.93551
G1 X127.511 Y130.604 E16.97664
G1 X126.177 Y131.374 E17.02419
G1 X124.970 Y131.900 E17.06486
G1 X123.891 Y132.251 E17.09990
G1 X122.385 Y132.571 E17.14743
G1 X121.270 Y132.689 E17.18206
G1 X120.500 Y132.714 E17.20585
G1 X99.500 Y132.714 E17.85431
G1 X98.730 Y132.689 E17.87809
G1 X97.406 Y132.538 E17.91923
G1 X96.108 Y132.251 E17.96029
G1 X94.847 Y131.830 E18.00135
G1 X93.636 Y131.278 E18.04244
G1 X92.489 Y130.604 E18.08352
G1 X91.419 Y129.813 E18.12462
G1 X90.438 Y128.914 E18.16570
G1 X89.556 Y127.918 E18.20678
G1 X88.782 Y126.835 E18.24787
G1 X88.222 Y125.864 E18.28250
G1 X87.670 Y124.653 E18.32358
G1 X87.249 Y123.391 E18.36467
G1 X86.929 Y121.885 E18.41221
G1 X86.800 Y120.560 E18.45332
G1 X86.786 Y120.000 E18.47062
G1 X86.786 Y86.000 E19.52051
G1 X86.811 Y85.230 E19.54430
G1 X86.961 Y83.908 E19.58538
G1 X87.245 Y82.622 E19.62605
G1 X87.595 Y81.542 E19.66109
G1 X88.222 Y80.136 E19.70864
G1 X88.897 Y78.988 E19.74974
G1 X89.659 Y77.954 E19.78942
G1 X89.965 Y78.144 F8400.000
G1 X90.838 Y77.190 E19.82935 F2340.000
G1 X91.806 Y76.333 E19.86928
G1 X92.684 Y75.696 E19.90276
G1 X93.798 Y75.040 E19.94269
G1 X95.172 Y74.428 E19.98912
G1 X96.404 Y74.040 E20.02901
G1 X97.671 Y73.781 E20.06894
G1 X98.749 Y73.668 E20.10242
G1 X99.500 Y73.643 E20.12563
G1 X120.500 Y73.643 E20.77408
G1 X121.042 Y73.657 E20.79083
G1 X122.329 Y73.781 E20.83076 F2340.000
G1 X123.596 Y74.040 E20.87069
G1 X125.025 Y74.504 E20.91709
G1 X126.202 Y75.040 E20.95702
G1 X127.316 Y75.696 E20.99694
G1 X128.356 Y76.465 E21.03688
G1 X129.310 Y77.338 E21.07681
G1 X130.167 Y78.306 E21.11674
G1 X130.804 Y79.184 E21.15022
G1 X131.460 Y80.298 E21.19015
G1 X131.996 Y81.475 E21.23008
G1 X132.406 Y82.701 E21.27001
G1 X132.686 Y83.964 E21.30995
G1 X132.832 Y85.249 E21.34988
G1 X132.857 Y86.000 E21.37309
G1 X132.857 Y120.000 E22.42297
G1 X132.832 Y120.751 E22.44618
G1 X132.719 Y121.829 E22.47965
G1 X132.460 Y123.097 E22.51959
G1 X131.996 Y124.525 E22.56597
G1 X131.555 Y125.516 E22.59945
G1 X130.918 Y126.641 E22.63938
G1 X130.035 Y127.856 E22.68577
G1 X129.310 Y128.662 E22.71925
G1 X128.357 Y129.534 E22.75914
G1 X127.316 Y130.304 E22.79911
G1 X126.015 Y131.055 E22.84551
G1 X124.842 Y131.567 E22.88502
G1 X123.798 Y131.906 E22.91891
G1 X122.329 Y132.219 E22.96529
G1 X121.251 Y132.332 E22.99877
G1 X120.500 Y132.357 E23.02197
G1 X99.500 Y132.357 E23.67043
G1 X98.749 Y132.332 E23.69364
G1 X97.462 Y132.186 E23.73362
G1 X96.201 Y131.906 E23.77352
G1 X94.975 Y131.496 E23.81344
G1 X93.798 Y130.960 E23.85337
G1 X92.684 Y130.304 E23.89330
G1 X91.644 Y129.535 E23.93324
G1 X90.690 Y128.662 E23.97316
G1 X89.833 Y127.694 E24.01309
G1 X89.082 Y126.641 E24.05303
G1 X88.540 Y125.702 E24.08651
G1 X88.004 Y124.525 E24.12643
G1 X87.594 Y123.299 E24.16637
G1 X87.281 Y121.829 E24.21276
G1 X87.157 Y120.541 E24.25271
G1 X87.143 Y120.000 E24.26943
G1 X87.143 Y86.000 E25.31932
G1 X87.168 Y85.249 E25.34253
G1 X87.314 Y83.964 E25.38246
G1 X87.590 Y82.714 E25.42198
G1 X87.929 Y81.670 E25.45587
G1 X88.540 Y80.298 E25.50226
G1 X89.196 Y79.183 E25.54221
G1 X89.936 Y78.179 E25.58073
G1 E23.58073 F2400.00000
G92 E0
G1 X121.450 Y120.521 F8400.000
G1 E2.00000 F2400.00000
G1 X121.303 Y120.723 E2.00772 F1755.000
G1 X121.062 Y120.926 E2.01745
G1 X120.834 Y121.028 E2.02517
G1 X120.476 Y121.086 E2.03636
G1 X99.524 Y121.086 E2.68334
G1 X99.176 Y121.031 E2.69423
G1 X98.936 Y120.925 E2.70233
G1 X98.697 Y120.723 E2.71198
G1 X98.564 Y120.540 E2.71896
G1 X98.472 Y120.334 E2.72594
G1 X98.414 Y119.976 E2.73713
G1 X98.414 Y86.024 E3.78554
G1 X98.469 Y85.676 E3.79643
G1 X98.565 Y85.458 E3.80378
G1 X98.697 Y85.277 E3.81069
G1 X98.958 Y85.061 E3.82115
G1 X99.266 Y84.945 E3.83130
G1 X99.550 Y84.914 E3.84013
G1 X120.627 Y84.924 E4.49096
G1 X120.940 Y85.013 E4.50100 F1755.000
G1 X121.135 Y85.126 E4.50798
G1 X121.321 Y85.293 E4.51570
G1 X121.487 Y85.560 E4.52542
G1 X121.557 Y85.775 E4.53240
G1 X121.586 Y86.048 E4.54087
G1 X121.586 Y119.952 E5.58779
G1 X121.557 Y120.225 E5.59626
G1 X121.471 Y120.481 E5.60460
G1 X121.739 Y120.731 F8400.000
G1 X121.570 Y120.963 E5.61348 F1755.000
G1 X121.335 Y121.175 E5.62323
G1 X121.233 Y121.241 E5.62699
G1 X120.945 Y121.369 E5.63674
G1 X120.636 Y121.435 E5.64649
G1 X120.485 Y121.443 E5.65115
G1 X99.515 Y121.443 E6.29870
G1 X99.363 Y121.435 E6.30338
G1 X99.066 Y121.372 E6.31277
G1 X98.766 Y121.240 E6.32290
G1 X98.665 Y121.175 E6.32662
G1 X98.430 Y120.963 E6.33636
G1 X98.253 Y120.720 E6.34566
G1 X98.131 Y120.445 E6.35495
G1 X98.065 Y120.136 E6.36470
G1 X98.057 Y119.985 E6.36936
G1 X98.057 Y86.015 E7.41835
G1 X98.065 Y85.863 E7.42302
G1 X98.128 Y85.566 E7.43241
G1 X98.254 Y85.279 E7.44209
G1 X98.430 Y85.037 E7.45134
G1 X98.665 Y84.825 E7.46109
G1 X98.779 Y84.751 E7.46530
G1 X98.901 Y84.689 E7.46952
G1 X99.190 Y84.595 E7.47891
G1 X99.530 Y84.557 E7.48949
G1 X120.654 Y84.567 E8.14176
G1 X120.787 Y84.588 E8.14592 F1755.000
G1 X121.086 Y84.685 E8.15562
G1 X121.346 Y84.835 E8.16491
G1 X121.581 Y85.046 E8.17466
G1 X121.658 Y85.141 E8.17842
G1 X121.815 Y85.414 E8.18817
G1 X121.908 Y85.701 E8.19746
G1 X121.943 Y86.029 E8.20766
G1 X121.943 Y119.971 E9.25574
G1 X121.908 Y120.299 E9.26595
G1 X121.763 Y120.693 E9.27890
G1 X122.028 Y120.941 F8400.000
G1 X121.837 Y121.204 E9.28894 F877.500
G1 X121.553 Y121.459 E9.30072
G1 X121.404 Y121.556 E9.30621
G1 X121.056 Y121.711 E9.31798
G1 X120.683 Y121.790 E9.32976
G1 X120.495 Y121.800 E9.33558
G1 X99.505 Y121.800 E9.98371
G1 X99.317 Y121.790 E9.98953
G1 X98.956 Y121.714 E10.00092
G1 X98.595 Y121.555 E10.01309
G1 X98.447 Y121.459 E10.01857
G1 X98.163 Y121.204 E10.03034
G1 X97.942 Y120.899 E10.04196
G1 X97.789 Y120.556 E10.05357
G1 X97.710 Y120.183 E10.06534
G1 X97.700 Y119.995 E10.07116
G1 X97.700 Y86.005 E11.12072
G1 X97.710 Y85.817 E11.12654
G1 X97.786 Y85.456 E11.13793
G1 X97.942 Y85.100 E11.14994
G1 X98.163 Y84.796 E11.16153
G1 X98.447 Y84.541 E11.17331
G1 X98.600 Y84.441 E11.17896
G1 X98.763 Y84.358 E11.18462
G1 X99.114 Y84.244 E11.19601
G1 X99.511 Y84.200 E11.20834
G1 X120.681 Y84.210 E11.86205
G1 X120.870 Y84.239 E11.86794 F877.500
G1 X121.232 Y84.357 E11.87970
G1 X121.557 Y84.545 E11.89131
G1 X121.841 Y84.800 E11.90309
G1 X121.953 Y84.938 E11.90858
G1 X122.143 Y85.268 E11.92036
G1 X122.260 Y85.626 E11.93197
G1 X122.300 Y86.010 E11.94391
G1 X122.300 Y119.990 E12.99314
G1 X122.260 Y120.374 E13.00508
G1 X122.142 Y120.737 E13.01686
G1 X122.054 Y120.904 E13.02269
G1 X121.729 Y120.921 F8400.000
G1 X99.163 Y120.758 F8400.000
G1 X98.755 Y120.349 E13.04057 F975.000
G1 X98.622 Y119.710 E13.06077
G1 X99.790 Y120.878 E13.11189
G1 X100.296 Y120.878 E13.12755
G1 X98.622 Y119.204 E13.20082
G1 X98.622 Y118.698 E13.21648
G1 X100.802 Y120.878 E13.31190
G1 X101.308 Y120.878 E13.32756
G1 X98.622 Y118.192 E13.44512
G1 X98.622 Y117.686 E13.46079
G1 X101.814 Y120.878 E13.60051
G1 X102.320 Y120.878 E13.61617
G1 X98.622 Y117.180 E13.77804
G1 X98.622 Y116.674 E13.79370
G1 X102.826 Y120.878 E13.97772
G1 X103.333 Y120.878 E13.99338
G1 X98.622 Y116.167 E14.19955
G1 X98.622 Y115.661 E14.21522
G1 X103.839 Y120.878 E14.44354
G1 X104.345 Y120.878 E14.45920
G1 X98.622 Y115.155 E14.70967
G1 X98.622 Y114.649 E14.72534
G1 X104.851 Y120.878 E14.99796
G1 X105.357 Y120.878 E15.01362
G1 X98.622 Y114.143 E15.30840
G1 X98.622 Y113.637 E15.32406
G1 X105.863 Y120.878 E15.64099
G1 X106.369 Y120.878 E15.65665
G1 X98.622 Y113.131 E15.99573
G1 X98.622 Y112.625 E16.01139
G1 X106.875 Y120.878 E16.37262
G1 X107.381 Y120.878 E16.38828
G1 X98.622 Y112.119 E16.77166
G1 X98.622 Y111.612 E16.78732
G1 X107.888 Y120.878 E17.19285
G1 X108.394 Y120.878 E17.20851
G1 X98.622 Y111.106 E17.63619
G1 X98.622 Y110.600 E17.65186
G1 X108.900 Y120.878 E18.10169
G1 X109.406 Y120.878 E18.11735
G1 X98.622 Y110.094 E18.58933
G1 X98.622 Y109.588 E18.60500
G1 X109.912 Y120.878 E19.09913
G1 X110.418 Y120.878 E19.11479
G1 X98.622 Y109.082 E19.63108
G1 X98.622 Y108.576 E19.64674
G1 X110.924 Y120.878 E20.18518
G1 X111.430 Y120.878 E20.20084
G1 X98.622 Y108.070 E20.76143
G1 X98.622 Y107.564 E20.77709
G1 X111.936 Y120.878 E21.35983
G1 X112.443 Y120.878 E21.37549
G1 X98.622 Y107.057 E21.98038
G1 X98.622 Y106.551 E21.99604
G1 X112.949 Y120.878 E22.62308
G1 X113.455 Y120.878 E22.63874
G1 X98.622 Y106.045 E23.28793
G1 X98.622 Y105.539 E23.30360
G1 X113.961 Y120.878 E23.97494
G1 X114.467 Y120.878 E23.99060
G1 X98.622 Y105.033 E24.68409
G1 X98.622 Y104.527 E24.69976
G1 X114.973 Y120.878 E25.41540
G1 X115.479 Y120.878 E25.43106
G1 X98.622 Y104.021 E26.16886
G1 X98.622 Y103.515 E26.18452
G1 X115.985 Y120.878 E26.94446
G1 X116.492 Y120.878 E26.96013
G1 X98.622 Y103.008 E27.74222
G1 X98.622 Y102.502 E27.75789
G1 X116.998 Y120.878 E28.56213
G1 X117.504 Y120.878 E28.57780
G1 X98.622 Y101.996 E29.40420
G1 X98.622 Y101.490 E29.41986
G1 X118.010 Y120.878 E30.26841
G1 X118.516 Y120.878 E30.28407
G1 X98.622 Y100.984 E31.15477
G1 X98.622 Y100.478 E31.17043
G1 X119.022 Y120.878 E32.06329
G1 X119.528 Y120.878 E32.07895
G1 X98.622 Y99.972 E32.99395
G1 X98.622 Y99.466 E33.00961
G1 X120.034 Y120.878 E33.94677
G1 X120.539 Y120.877 E33.96238
G1 X98.622 Y98.960 E34.92161
G1 X98.622 Y98.453 E34.93728
G1 X120.946 Y120.777 E35.91432
G1 X121.210 Y120.536 E35.92541
G1 X98.622 Y97.947 E36.91403
G1 X98.622 Y97.441 E36.92969
G1 X121.361 Y120.180 E37.92489
G1 X121.378 Y119.691 E37.94002
G1 X98.622 Y96.935 E38.93598
G1 X98.622 Y96.429 E38.95165
G1 X121.378 Y119.185 E39.94761
G1 X121.378 Y118.679 E39.96328
G1 X98.622 Y95.923 E40.95924
G1 X98.622 Y95.417 E40.97491
G1 X121.378 Y118.173 E41.97087
G1 X121.378 Y117.667 E41.98654
G1 X98.622 Y94.911 E42.98250
G1 X98.622 Y94.405 E42.99816
G1 X121.378 Y117.161 E43.99413
G1 X121.378 Y116.655 E44.00979
G1 X98.622 Y93.898 E45.00576
G1 X98.622 Y93.392 E45.02142
G1 X121.378 Y116.149 E46.01739
G1 X121.378 Y115.642 E46.03305
G1 X98.622 Y92.886 E47.02902
G1 X98.622 Y92.380 E47.04468
G1 X121.378 Y115.136 E48.04065
G1 X121.378 Y114.630 E48.05631
G1 X98.622 Y91.874 E49.05228
G1 X98.622 Y91.368 E49.06794
G1 X121.378 Y114.124 E50.06391
G1 X121.378 Y113.618 E50.07957
G1 X98.622 Y90.862 E51.07554
G1 X98.622 Y90.356 E51.09120
G1 X121.378 Y113.112 E52.08717
G1 X121.378 Y112.606 E52.10283
G1 X98.622 Y89.850 E53.09880
G1 X98.622 Y89.343 E53.11446
G1 X121.378 Y112.100 E54.11043
