; generated by Slic3r 1.2.9 on 2018-01-28 at 17:14:23

; external perimeters extrusion width = 0.30mm
; perimeters extrusion width = 0.40mm
; infill extrusion width = 0.40mm
; solid infill extrusion width = 0.40mm
; top infill extrusion width = 0.40mm
; support material extrusion width = 0.30mm

M107
M190 S75 ; set bed temperature
M104 S215 ; set temperature
G28 ; home all axes
G1 Z5 F5000 ; lift nozzle

M109 S215 ; wait for temperature to be reached
G21 ; set units to millimeters
G90 ; use absolute coordinates
M82 ; use absolute distances for extrusion
G92 E0
G1 Z0.200 F8400.000
G1 E-2.00000 F2400.00000
G92 E0
G1 X66.060 Y67.913 F8400.000
G1 E2.00000 F2400.00000
G1 X68.473 Y66.101 E2.09316 F2340.000
G1 X71.275 Y64.985 E2.18633
G1 X74.065 Y64.639 E2.27312
G1 X145.935 Y64.639 E4.49241
G1 X148.926 Y65.037 E4.58557 F2340.000
G1 X151.708 Y66.205 E4.67874
G1 X154.087 Y68.060 E4.77190
G1 X155.899 Y70.473 E4.86506
G1 X157.015 Y73.275 E4.95823
G1 X157.361 Y76.065 E5.04502
G1 X157.362 Y77.687 E5.09512
G1 X157.361 Y129.935 E6.70848
G1 X156.963 Y132.926 E6.80165
G1 X155.795 Y135.708 E6.89481
G1 X153.940 Y138.087 E6.98798
G1 X151.527 Y139.899 E7.08114
G1 X148.725 Y141.015 E7.17430
G1 X145.935 Y141.361 E7.26109
G1 X74.065 Y141.361 E9.48039
G1 X71.074 Y140.963 E9.57355
G1 X68.292 Y139.795 E9.66671
G1 X65.913 Y137.940 E9.75988
G1 X64.101 Y135.527 E9.85304
G1 X62.985 Y132.725 E9.94620
G1 X62.639 Y129.935 E10.03299
G1 X62.639 Y76.065 E11.69646
G1 X63.037 Y73.074 E11.78963
G1 X64.205 Y70.292 E11.88279
G1 X66.032 Y67.948 E11.97456
G1 X66.351 Y68.145 F8400.000
G1 X66.411 Y68.069 E11.97754 F2340.000
G1 X68.812 Y66.322 E12.06923
G1 X71.591 Y65.276 E12.16092
G1 X74.065 Y64.996 E12.23779
G1 X145.935 Y64.996 E14.45708
G1 X148.878 Y65.394 E14.54877 F2340.000
G1 X151.608 Y66.561 E14.64046
G1 X153.931 Y68.411 E14.73215
G1 X155.678 Y70.812 E14.82384
G1 X156.724 Y73.591 E14.91553
G1 X157.004 Y76.065 E14.99241
G1 X157.005 Y77.687 E15.04252
G1 X157.004 Y129.935 E16.65588
G1 X156.606 Y132.878 E16.74757
G1 X155.439 Y135.608 E16.83926
G1 X153.589 Y137.931 E16.93095
G1 X151.188 Y139.678 E17.02264
G1 X148.409 Y140.724 E17.11433
G1 X145.935 Y141.004 E17.19120
G1 X74.065 Y141.004 E19.41049
G1 X71.122 Y140.606 E19.50218
G1 X68.392 Y139.439 E19.59387
G1 X66.069 Y137.589 E19.68556
G1 X64.322 Y135.188 E19.77725
G1 X63.276 Y132.409 E19.86894
G1 X62.996 Y129.935 E19.94582
G1 X62.996 Y76.065 E21.60928
G1 X63.394 Y73.122 E21.70097
G1 X64.561 Y70.392 E21.79266
G1 X66.323 Y68.180 E21.87999
G1 X66.639 Y68.380 F8400.000
G1 X66.762 Y68.229 E21.88599 F2340.000
G1 X69.150 Y66.547 E21.97618
G1 X71.904 Y65.573 E22.06637
G1 X74.065 Y65.353 E22.13345
G1 X145.935 Y65.353 E24.35273
G1 X148.829 Y65.751 E24.44292 F2340.000
G1 X151.507 Y66.917 E24.53312
G1 X153.771 Y68.762 E24.62331
G1 X155.453 Y71.150 E24.71350
G1 X156.427 Y73.904 E24.80369
G1 X156.647 Y76.065 E24.87077
G1 X156.648 Y77.687 E24.92087
G1 X156.647 Y129.935 E26.53423
G1 X156.249 Y132.829 E26.62442
G1 X155.083 Y135.507 E26.71461
G1 X153.238 Y137.771 E26.80480
G1 X150.850 Y139.453 E26.89500
G1 X148.096 Y140.427 E26.98519
G1 X145.935 Y140.647 E27.05226
G1 X74.065 Y140.647 E29.27155
G1 X71.171 Y140.249 E29.36174
G1 X68.493 Y139.083 E29.45193
G1 X66.229 Y137.238 E29.54213
G1 X64.547 Y134.850 E29.63232
G1 X63.573 Y132.096 E29.72251
G1 X63.353 Y129.935 E29.78958
G1 X63.353 Y76.065 E31.45304
G1 X63.751 Y73.171 E31.54324
G1 X64.917 Y70.493 E31.63343
G1 X66.611 Y68.414 E31.71623
G1 X66.924 Y68.617 F8400.000
G1 X67.113 Y68.392 E31.72531 F2340.000
G1 X69.487 Y66.777 E31.81398
G1 X72.214 Y65.877 E31.90265
G1 X74.065 Y65.710 E31.96003
G1 X145.935 Y65.710 E34.17931
G1 X148.779 Y66.108 E34.26798 F2340.000
G1 X151.404 Y67.272 E34.35665
G1 X153.608 Y69.113 E34.44532
G1 X155.223 Y71.487 E34.53399
G1 X156.123 Y74.214 E34.62266
G1 X156.290 Y76.065 E34.68005
G1 X156.291 Y77.688 E34.73015
G1 X156.290 Y129.935 E36.34350
G1 X155.892 Y132.779 E36.43217
G1 X154.728 Y135.404 E36.52084
G1 X152.887 Y137.608 E36.60951
G1 X150.513 Y139.223 E36.69818
G1 X147.786 Y140.123 E36.78685
G1 X145.935 Y140.290 E36.84424
G1 X74.065 Y140.290 E39.06352
G1 X71.221 Y139.892 E39.15219
G1 X68.596 Y138.728 E39.24086
G1 X66.392 Y136.887 E39.32953
G1 X64.777 Y134.513 E39.41820
G1 X63.877 Y131.786 E39.50687
G1 X63.710 Y129.935 E39.56425
G1 X63.710 Y76.065 E41.22771
G1 X64.108 Y73.221 E41.31638
G1 X65.272 Y70.596 E41.40505
G1 X66.895 Y68.652 E41.48325
G1 E39.48325 F2400.00000
G92 E0
G1 X145.733 Y129.733 F8400.000
G1 E2.00000 F2400.00000
G1 X74.267 Y129.733 E4.20681 F877.500
G1 X74.267 Y76.267 E5.85779
G1 X145.733 Y76.267 E8.06460
G1 X145.733 Y129.688 E9.71419
G1 X145.473 Y129.583 F8400.000
G1 X145.376 Y129.376 F8400.000
G1 X74.624 Y129.376 E11.89894 F1755.000
G1 X74.624 Y76.624 E13.52788
G1 X145.376 Y76.624 E15.71263
G1 X145.376 Y129.331 E17.34017
G1 X145.019 Y129.019 F8400.000
G1 X74.981 Y129.019 E19.50287 F1755.000
G1 X74.981 Y76.981 E21.10975
G1 X145.019 Y76.981 E23.27245
G1 X145.019 Y128.974 E24.87794
G1 X144.811 Y77.380 F8400.000
G1 X144.620 Y77.189 E24.88632 F975.000
G1 X144.114 Y77.189 E24.90195
G1 X144.811 Y77.886 E24.93244
G1 X144.811 Y78.392 E24.94808
G1 X143.608 Y77.189 E25.00068
G1 X143.103 Y77.189 E25.01632
G1 X144.811 Y78.897 E25.09104
G1 X144.811 Y79.403 E25.10668
G1 X142.597 Y77.189 E25.20351
G1 X142.091 Y77.189 E25.21915
G1 X144.811 Y79.909 E25.33810
G1 X144.811 Y80.414 E25.35374
G1 X141.586 Y77.189 E25.49480
G1 X141.080 Y77.189 E25.51044
G1 X144.811 Y80.920 E25.67361
G1 X144.811 Y81.426 E25.68925
G1 X140.574 Y77.189 E25.87454
G1 X140.068 Y77.189 E25.89018
G1 X144.811 Y81.932 E26.09759
G1 X144.811 Y82.437 E26.11323
G1 X139.563 Y77.189 E26.34275
G1 X139.057 Y77.189 E26.35839
G1 X144.811 Y82.943 E26.61002
G1 X144.811 Y83.449 E26.62566
G1 X138.551 Y77.189 E26.89941
G1 X138.046 Y77.189 E26.91505
G1 X144.811 Y83.954 E27.21092
G1 X144.811 Y84.460 E27.22656
G1 X137.540 Y77.189 E27.54454
G1 X137.034 Y77.189 E27.56017
G1 X144.811 Y84.966 E27.90027
G1 X144.811 Y85.471 E27.91591
G1 X136.529 Y77.189 E28.27812
G1 X136.023 Y77.189 E28.29376
G1 X144.811 Y85.977 E28.67808
G1 X144.811 Y86.483 E28.69372
G1 X135.517 Y77.189 E29.10016
G1 X135.011 Y77.189 E29.11580
G1 X144.811 Y86.989 E29.54436
G1 X144.811 Y87.494 E29.55999
G1 X134.506 Y77.189 E30.01066
G1 X134.000 Y77.189 E30.02630
G1 X144.811 Y88.000 E30.49909
G1 X144.811 Y88.506 E30.51472
G1 X133.494 Y77.189 E31.00962
G1 X132.989 Y77.189 E31.02526
G1 X144.811 Y89.011 E31.54228
G1 X144.811 Y89.517 E31.55791
G1 X132.483 Y77.189 E32.09704
G1 X131.977 Y77.189 E32.11268
G1 X144.811 Y90.023 E32.67393
G1 X144.811 Y90.528 E32.68956
G1 X131.472 Y77.189 E33.27292
G1 X130.966 Y77.189 E33.28856
G1 X144.811 Y91.034 E33.89403
G1 X144.811 Y91.540 E33.90967
G1 X130.460 Y77.189 E34.53726
G1 X129.954 Y77.189 E34.55290
G1 X144.811 Y92.046 E35.20260
G1 X144.811 Y92.551 E35.21824
G1 X129.449 Y77.189 E35.89006
G1 X128.943 Y77.189 E35.90570
G1 X144.811 Y93.057 E36.59963
G1 X144.811 Y93.563 E36.61527
G1 X128.437 Y77.189 E37.33132
G1 X127.932 Y77.189 E37.34695
G1 X144.811 Y94.068 E38.08512
G1 X144.811 Y94.574 E38.10075
G1 X127.426 Y77.189 E38.86103
G1 X126.920 Y77.189 E38.87667
G1 X144.811 Y95.080 E39.65906
G1 X144.811 Y95.585 E39.67470
G1 X126.415 Y77.189 E40.47921
G1 X125.909 Y77.189 E40.49484
G1 X144.811 Y96.091 E41.32147
G1 X144.811 Y96.597 E41.33710
G1 X125.403 Y77.189 E42.18584
G1 X124.897 Y77.189 E42.20148
G1 X144.811 Y97.103 E43.07233
G1 X144.811 Y97.608 E43.08797
G1 X124.392 Y77.189 E43.98093
G1 X123.886 Y77.189 E43.99657
G1 X144.811 Y98.114 E44.91165
G1 X144.811 Y98.620 E44.92729
G1 X123.380 Y77.189 E45.86449
G1 X122.875 Y77.189 E45.88013
G1 X144.811 Y99.125 E46.83944
G1 X144.811 Y99.631 E46.85507
G1 X122.369 Y77.189 E47.83650
G1 X121.863 Y77.189 E47.85214
G1 X144.811 Y100.137 E48.85568
G1 X144.811 Y100.642 E48.87132
G1 X121.358 Y77.189 E49.89697
G1 X120.852 Y77.189 E49.91261
G1 X144.811 Y101.148 E50.96038
G1 X144.811 Y101.654 E50.97602
G1 X120.346 Y77.189 E52.04590
G1 X119.840 Y77.189 E52.06154
G1 X144.811 Y102.160 E53.15354
G1 X144.811 Y102.665 E53.16918
G1 X119.335 Y77.189 E54.28329
G1 X118.829 Y77.189 E54.29893
G1 X144.811 Y103.171 E55.43516
G1 X144.811 Y103.677 E55.45080
G1 X118.323 Y77.189 E56.60914
G1 X117.818 Y77.189 E56.62478
G1 X144.811 Y104.182 E57.80524
G1 X144.811 Y104.688 E57.82087
G1 X117.312 Y77.189 E59.02345
G1 X116.806 Y77.189 E59.03909
G1 X144.811 Y105.194 E60.26377
G1 X144.811 Y105.699 E60.27941
G1 X116.301 Y77.189 E61.52622
G1 X115.795 Y77.189 E61.54185
G1 X144.811 Y106.205 E62.81077
G1 X144.811 Y106.711 E62.82641
G1 X115.289 Y77.189 E64.11744
G1 X114.783 Y77.189 E64.13308
G1 X144.811 Y107.217 E65.44623
G1 X144.811 Y107.722 E65.46187
G1 X114.278 Y77.189 E66.79713
G1 X113.772 Y77.189 E66.81277
G1 X144.811 Y108.228 E68.17014
G1 X144.811 Y108.734 E68.18578
G1 X113.266 Y77.189 E69.56527
G1 X112.761 Y77.189 E69.58091
G1 X144.811 Y109.239 E70.98252
G1 X144.811 Y109.745 E70.99816
G1 X112.255 Y77.189 E72.42188
G1 X111.749 Y77.189 E72.43752
G1 X144.811 Y110.251 E73.88335
G1 X144.811 Y110.756 E73.89899
G1 X111.244 Y77.189 E75.36694
G1 X110.738 Y77.189 E75.38258
G1 X144.811 Y111.262 E76.87265
G1 X144.811 Y111.768 E76.88828
G1 X110.232 Y77.189 E78.40047
G1 X109.726 Y77.189 E78.41610
G1 X144.811 Y112.274 E79.95040
G1 X144.811 Y112.779 E79.96604
G1 X109.221 Y77.189 E81.52245
G1 X108.715 Y77.189 E81.53808
G1 X144.811 Y113.285 E83.11661
G1 X144.811 Y113.791 E83.13225
G1 X108.209 Y77.189 E84.73289
G1 X107.704 Y77.189 E84.74853
G1 X144.811 Y114.296 E86.37128
G1 X144.811 Y114.802 E86.38692
G1 X107.198 Y77.189 E88.03179
G1 X106.692 Y77.189 E88.04743
G1 X144.811 Y115.308 E89.71441
G1 X144.811 Y115.813 E89.73005
G1 X106.187 Y77.189 E91.41915
G1 X105.681 Y77.189 E91.43479
G1 X144.811 Y116.319 E93.14600
G1 X144.811 Y116.825 E93.16164
G1 X105.175 Y77.189 E94.89497
G1 X104.669 Y77.189 E94.91061
G1 X144.811 Y117.331 E96.66605
G1 X144.811 Y117.836 E96.68169
G1 X104.164 Y77.189 E98.45925
G1 X103.658 Y77.189 E98.47488
G1 X144.811 Y118.342 E100.27456
G1 X144.811 Y118.848 E100.29020
G1 X103.152 Y77.189 E102.11198
G1 X102.647 Y77.189 E102.12762
G1 X144.811 Y119.353 E103.97152
G1 X144.811 Y119.859 E103.98716
G1 X102.141 Y77.189 E105.85318
G1 X101.635 Y77.189 E105.86882
G1 X144.811 Y120.365 E107.75695
G1 X144.811 Y120.870 E107.77259
G1 X101.130 Y77.189 E109.68284
G1 X100.624 Y77.189 E109.69847
G1 X144.811 Y121.376 E111.63084
G1 X144.811 Y121.882 E111.64647
G1 X100.118 Y77.189 E113.60095
G1 X99.612 Y77.189 E113.61659
G1 X144.811 Y122.388 E115.59318
G1 X144.811 Y122.893 E115.60882
G1 X99.107 Y77.189 E117.60753
G1 X98.601 Y77.189 E117.62316
G1 X144.811 Y123.399 E119.64399
G1 X144.811 Y123.905 E119.65962
G1 X98.095 Y77.189 E121.70256
G1 X97.590 Y77.189 E121.71820
G1 X144.811 Y124.410 E123.78325
G1 X144.811 Y124.916 E123.79889
G1 X97.084 Y77.189 E125.88605
G1 X96.578 Y77.189 E125.90169
G1 X144.811 Y125.422 E128.01097
G1 X144.811 Y125.927 E128.02661
G1 X96.073 Y77.189 E130.15801
G1 X95.567 Y77.189 E130.17364
G1 X144.811 Y126.433 E132.32715
G1 X144.811 Y126.939 E132.34279
G1 X95.061 Y77.189 E134.51842
G1 X94.555 Y77.189 E134.53405
G1 X144.811 Y127.445 E136.73179
G1 X144.811 Y127.950 E136.74743
G1 X94.050 Y77.189 E138.96729
G1 X93.544 Y77.189 E138.98292
G1 X144.811 Y128.456 E141.22489
G1 X144.661 Y128.811 E141.23683
G1 X93.038 Y77.189 E143.49434
G1 X92.533 Y77.189 E143.50997
G1 X144.155 Y128.811 E145.76748
G1 X143.650 Y128.811 E145.78312
G1 X92.027 Y77.189 E148.04063
G1 X91.521 Y77.189 E148.05627
G1 X143.144 Y128.811 E150.31378
G1 X142.638 Y128.811 E150.32941
G1 X91.016 Y77.189 E152.58692
G1 X90.510 Y77.189 E152.60256
G1 X142.132 Y128.811 E154.86007
G1 X141.627 Y128.811 E154.87571
G1 X90.004 Y77.189 E157.13322
G1 X89.498 Y77.189 E157.14886
G1 X141.121 Y128.811 E159.40637
G1 X140.615 Y128.811 E159.42200
G1 X88.993 Y77.189 E161.67951
G1 X88.487 Y77.189 E161.69515
G1 X140.110 Y128.811 E163.95266
G1 X139.604 Y128.811 E163.96830
G1 X87.981 Y77.189 E166.22581
G1 X87.476 Y77.189 E166.24144
G1 X139.098 Y128.811 E168.49895
G1 X138.593 Y128.811 E168.51459
G1 X86.970 Y77.189 E170.77210
G1 X86.464 Y77.189 E170.78774
G1 X138.087 Y128.811 E173.04525
G1 X137.581 Y128.811 E173.06088
G1 X85.959 Y77.189 E175.31839
G1 X85.453 Y77.189 E175.33403
G1 X137.075 Y128.811 E177.59154
G1 X136.570 Y128.811 E177.60718
G1 X84.947 Y77.189 E179.86469
G1 X84.441 Y77.189 E179.88033
G1 X136.064 Y128.811 E182.13784
G1 X135.558 Y128.811 E182.15347
G1 X83.936 Y77.189 E184.41098
G1 X83.430 Y77.189 E184.42662
G1 X135.053 Y128.811 E186.68413
G1 X134.547 Y128.811 E186.69977
G1 X82.924 Y77.189 E188.95728
G1 X82.419 Y77.189 E188.97291
G1 X134.041 Y128.811 E191.23042
G1 X133.536 Y128.811 E191.24606
G1 X81.913 Y77.189 E193.50357
G1 X81.407 Y77.189 E193.51921
G1 X133.030 Y128.811 E195.77672
G1 X132.524 Y128.811 E195.79236
G1 X80.902 Y77.189 E198.04986
G1 X80.396 Y77.189 E198.06550
G1 X132.018 Y128.811 E200.32301
G1 X131.513 Y128.811 E200.33865
G1 X79.890 Y77.189 E202.59616
G1 X79.384 Y77.189 E202.61180
G1 X131.007 Y128.811 E204.86931
G1 X130.501 Y128.811 E204.88494
G1 X78.879 Y77.189 E207.14245
G1 X78.373 Y77.189 E207.15809
G1 X129.996 Y128.811 E209.41560
G1 X129.490 Y128.811 E209.43124
G1 X77.867 Y77.189 E211.68875
G1 X77.362 Y77.189 E211.70438
G1 X128.984 Y128.811 E213.96189
G1 X128.479 Y128.811 E213.97753
G1 X76.856 Y77.189 E216.23504
G1 X76.350 Y77.189 E216.25068
G1 X127.973 Y128.811 E218.50819
G1 X127.467 Y128.811 E218.52383
G1 X75.845 Y77.189 E220.78134
G1 X75.339 Y77.189 E220.79697
G1 X126.961 Y128.811 E223.05448
G1 X126.456 Y128.811 E223.07012
G1 X75.189 Y77.544 E225.31208
G1 X75.189 Y78.050 E225.32772
G1 X125.950 Y128.811 E227.54756
G1 X125.444 Y128.811 E227.56320
G1 X75.189 Y78.556 E229.76093
G1 X75.189 Y79.061 E229.77657
G1 X124.939 Y128.811 E231.95219
G1 X124.433 Y128.811 E231.96782
G1 X75.189 Y79.567 E234.12133
G1 X75.189 Y80.073 E234.13696
G1 X123.927 Y128.811 E236.26835
G1 X123.422 Y128.811 E236.28399
G1 X75.189 Y80.578 E238.39326
G1 X75.189 Y81.084 E238.40890
G1 X122.916 Y128.811 E240.49605
G1 X122.410 Y128.811 E240.51169
G1 X75.189 Y81.590 E242.57673
G1 X75.189 Y82.096 E242.59237
G1 X121.904 Y128.811 E244.63530
G1 X121.399 Y128.811 E244.65094
G1 X75.189 Y82.601 E246.67175
G1 X75.189 Y83.107 E246.68739
G1 X120.893 Y128.811 E248.68609
G1 X120.387 Y128.811 E248.70172
G1 X75.189 Y83.613 E250.67831
G1 X75.189 Y84.118 E250.69394
G1 X119.882 Y128.811 E252.64841
G1 X119.376 Y128.811 E252.66405
G1 X75.189 Y84.624 E254.59640
G1 X75.189 Y85.130 E254.61204
G1 X118.870 Y128.811 E256.52228
G1 X118.365 Y128.811 E256.53792
G1 X75.189 Y85.635 E258.42604
G1 X75.189 Y86.141 E258.44168
G1 X117.859 Y128.811 E260.30769
G1 X117.353 Y128.811 E260.32332
G1 X75.189 Y86.647 E262.16722
G1 X75.189 Y87.153 E262.18286
G1 X116.847 Y128.811 E264.00464
G1 X116.342 Y128.811 E264.02027
G1 X75.189 Y87.658 E265.81994
G1 X75.189 Y88.164 E265.83558
G1 X115.836 Y128.811 E267.61313
G1 X115.330 Y128.811 E267.62876
G1 X75.189 Y88.670 E269.38420
G1 X75.189 Y89.175 E269.39984
G1 X114.825 Y128.811 E271.13316
G1 X114.319 Y128.811 E271.14879
G1 X75.189 Y89.681 E272.86000
G1 X75.189 Y90.187 E272.87564
G1 X113.813 Y128.811 E274.56473
G1 X113.308 Y128.811 E274.58036
G1 X75.189 Y90.692 E276.24734
G1 X75.189 Y91.198 E276.26298
G1 X112.802 Y128.811 E277.90784
G1 X112.296 Y128.811 E277.92348
G1 X75.189 Y91.704 E279.54622
G1 X75.189 Y92.210 E279.56186
G1 X111.790 Y128.811 E281.16249
G1 X111.285 Y128.811 E281.17813
G1 X75.189 Y92.715 E282.75664
G1 X75.189 Y93.221 E282.77228
G1 X110.779 Y128.811 E284.32868
G1 X110.273 Y128.811 E284.34432
G1 X75.189 Y93.727 E285.87861
G1 X75.189 Y94.232 E285.89425
G1 X109.768 Y128.811 E287.40642
G1 X109.262 Y128.811 E287.42206
G1 X75.189 Y94.738 E288.91211
G1 X75.189 Y95.244 E288.92775
G1 X108.756 Y128.811 E290.39569
G1 X108.251 Y128.811 E290.41133
G1 X75.189 Y95.749 E291.85716
G1 X75.189 Y96.255 E291.87280
G1 X107.745 Y128.811 E293.29651
G1 X107.239 Y128.811 E293.31215
G1 X75.189 Y96.761 E294.71374
G1 X75.189 Y97.267 E294.72938
G1 X106.733 Y128.811 E296.10887
G1 X106.228 Y128.811 E296.12450
G1 X75.189 Y97.772 E297.48187
G1 X75.189 Y98.278 E297.49751
G1 X105.722 Y128.811 E298.83276
