; generated by Slic3r 1.2.9 on 2018-01-28 at 19:27:40

; external perimeters extrusion width = 0.30mm
; perimeters extrusion width = 0.40mm
; infill extrusion width = 0.40mm
; solid infill extrusion width = 0.40mm
; top infill extrusion width = 0.40mm
; support material extrusion width = 0.30mm

M107
M190 S75 ; set bed temperature
M104 S215 ; set temperature
G28 ; home all axes
G1 Z5 F5000 ; lift nozzle

M109 S215 ; wait for temperature to be reached
G21 ; set units to millimeters
G90 ; use absolute coordinates
M82 ; use absolute distances for extrusion
G92 E0
G1 Z0.200 F8400.000
G1 E-2.00000 F2400.00000
G92 E0
G1 X59.770 Y53.817 F8400.000
G1 E2.00000 F2400.00000
G1 X60.581 Y52.933 E2.03704 F2340.000
G1 X61.632 Y52.001 E2.08043
G1 X62.776 Y51.183 E2.12383
G1 X63.999 Y50.490 E2.16724
G1 X65.287 Y49.928 E2.21064
G1 X66.614 Y49.508 E2.25361
G1 X67.796 Y49.256 E2.29095
G1 X69.193 Y49.098 E2.33435
G1 X70.000 Y49.072 E2.35928
G1 X128.000 Y49.072 E4.15026
G1 X128.598 Y49.087 E4.16874
G1 X130.204 Y49.256 E4.21859 F2340.000
G1 X131.563 Y49.556 E4.26157
G1 X132.714 Y49.929 E4.29892
G1 X134.188 Y50.585 E4.34877
G1 X135.401 Y51.298 E4.39219
G1 X136.530 Y52.132 E4.43555
G1 X137.419 Y52.932 E4.47248
G1 X157.567 Y73.081 E5.35235
G1 X158.368 Y73.970 E5.38929
G1 X159.202 Y75.100 E5.43267
G1 X159.915 Y76.312 E5.47608
G1 X160.496 Y77.591 E5.51947
G1 X160.941 Y78.924 E5.56286
G1 X161.244 Y80.296 E5.60626
G1 X161.353 Y81.080 E5.63070
G1 X164.932 Y114.670 E6.67379
G1 X164.996 Y115.881 E6.71123
G1 X164.996 Y119.069 E6.80967
G1 X164.598 Y122.059 E6.90283
G1 X163.785 Y124.189 E6.97323
G1 X163.380 Y124.997 E7.00113
G1 X162.356 Y126.666 E7.06161
G1 X158.810 Y131.466 E7.24586
G1 X158.368 Y132.030 E7.26801
G1 X157.559 Y132.927 E7.30530
G1 X137.419 Y153.067 E8.18480
G1 X136.530 Y153.868 E8.22175
G1 X135.225 Y154.816 E8.27157
G1 X134.188 Y155.415 E8.30854
G1 X132.909 Y155.996 E8.35192
G1 X131.372 Y156.496 E8.40184
G1 X129.997 Y156.777 E8.44516
G1 X128.807 Y156.902 E8.48211
G1 X128.000 Y156.928 E8.50704
G1 X70.000 Y156.928 E10.29802
G1 X69.190 Y156.902 E10.32305
G1 X67.809 Y156.746 E10.36596
G1 X66.626 Y156.495 E10.40330
G1 X65.287 Y156.071 E10.44669
G1 X63.998 Y155.510 E10.49007
G1 X62.775 Y154.816 E10.53350
G1 X61.633 Y154.000 E10.57683
G1 X60.582 Y153.069 E10.62019
G1 X59.632 Y152.030 E10.66366
G1 X58.798 Y150.900 E10.70704
G1 X57.990 Y149.502 E10.75691
G1 X57.504 Y148.409 E10.79385
G1 X57.059 Y147.076 E10.83723
G1 X56.723 Y145.497 E10.88709
G1 X56.598 Y144.307 E10.92403
G1 X56.572 Y143.500 E10.94897
G1 X56.572 Y62.500 E13.45016
G1 X56.598 Y61.693 E13.47510
G1 X56.756 Y60.295 E13.51853
G1 X57.056 Y58.937 E13.56149
G1 X57.429 Y57.786 E13.59883
G1 X57.990 Y56.499 E13.64221
G1 X58.684 Y55.275 E13.68563
G1 X59.501 Y54.132 E13.72901
G1 X59.740 Y53.850 E13.74044
G1 X60.035 Y54.055 F8400.000
G1 X60.833 Y53.185 E13.77690 F2340.000
G1 X61.857 Y52.278 E13.81914
G1 X62.970 Y51.483 E13.86138
G1 X64.161 Y50.808 E13.90363
G1 X65.415 Y50.262 E13.94589
G1 X66.706 Y49.853 E13.98770
G1 X67.852 Y49.609 E14.02389
G1 X69.212 Y49.455 E14.06613
G1 X70.000 Y49.429 E14.09049
G1 X128.000 Y49.429 E15.88147
G1 X128.579 Y49.444 E15.89936
G1 X130.148 Y49.609 E15.94806 F2340.000
G1 X131.471 Y49.900 E15.98989
G1 X132.586 Y50.262 E16.02609
G1 X134.026 Y50.903 E16.07478
G1 X135.206 Y51.597 E16.11704
G1 X136.305 Y52.410 E16.15926
G1 X137.166 Y53.185 E16.19503
G1 X157.315 Y73.333 E17.07490
G1 X158.090 Y74.195 E17.11069
G1 X158.903 Y75.294 E17.15291
G1 X159.597 Y76.474 E17.19517
G1 X160.163 Y77.719 E17.23740
G1 X160.596 Y79.016 E17.27964
G1 X160.891 Y80.352 E17.32188
G1 X160.998 Y81.118 E17.34576
G1 X164.577 Y114.708 E18.38886
G1 X164.639 Y115.881 E18.42513
G1 X164.639 Y119.069 E18.52356
G1 X164.241 Y122.011 E18.61525
G1 X163.466 Y124.029 E18.68201
G1 X163.061 Y124.837 E18.70990
G1 X162.068 Y126.454 E18.76850
G1 X158.523 Y131.254 E18.95275
G1 X158.090 Y131.805 E18.97440
G1 X157.306 Y132.676 E19.01060
G1 X137.167 Y152.815 E19.89005
G1 X136.305 Y153.590 E19.92584
G1 X135.030 Y154.517 E19.97450
G1 X134.026 Y155.097 E20.01032
G1 X132.781 Y155.663 E20.05254
G1 X131.279 Y156.151 E20.10131
G1 X129.941 Y156.424 E20.14348
G1 X128.788 Y156.545 E20.17928
G1 X128.000 Y156.571 E20.20363
G1 X70.000 Y156.571 E21.99461
G1 X69.209 Y156.545 E22.01905
G1 X67.865 Y156.393 E22.06081
G1 X66.719 Y156.150 E22.09700
G1 X65.414 Y155.738 E22.13923
G1 X64.161 Y155.192 E22.18147
G1 X62.970 Y154.517 E22.22374
G1 X61.858 Y153.723 E22.26592
G1 X60.835 Y152.817 E22.30812
G1 X59.910 Y151.806 E22.35044
G1 X59.097 Y150.706 E22.39266
G1 X58.308 Y149.340 E22.44138
G1 X57.837 Y148.281 E22.47716
G1 X57.404 Y146.984 E22.51939
G1 X57.076 Y145.441 E22.56809
G1 X56.955 Y144.288 E22.60388
G1 X56.929 Y143.500 E22.62824
G1 X56.929 Y62.500 E25.12943
G1 X56.955 Y61.711 E25.15380
G1 X57.109 Y60.351 E25.19607
G1 X57.401 Y59.029 E25.23788
G1 X57.762 Y57.914 E25.27407
G1 X58.308 Y56.661 E25.31629
G1 X58.983 Y55.470 E25.35856
G1 X59.778 Y54.357 E25.40078
G1 X60.005 Y54.089 E25.41163
G1 X60.300 Y54.294 F8400.000
G1 X61.086 Y53.438 E25.44751 F2340.000
G1 X62.082 Y52.556 E25.48860
G1 X63.165 Y51.782 E25.52969
G1 X64.323 Y51.126 E25.57079
G1 X65.543 Y50.595 E25.61189
G1 X66.799 Y50.198 E25.65255
G1 X67.908 Y49.961 E25.68758
G1 X69.230 Y49.811 E25.72867
G1 X70.000 Y49.786 E25.75245
G1 X128.000 Y49.786 E27.54343
G1 X128.561 Y49.801 E27.56075
G1 X130.092 Y49.961 E27.60829 F2340.000
G1 X131.378 Y50.245 E27.64897
G1 X132.458 Y50.595 E27.68401
G1 X133.864 Y51.222 E27.73155
G1 X135.012 Y51.897 E27.77266
G1 X136.081 Y52.687 E27.81372
G1 X136.914 Y53.437 E27.84833
G1 X157.062 Y73.586 E28.72821
G1 X157.813 Y74.419 E28.76284
G1 X158.603 Y75.489 E28.80391
G1 X159.278 Y76.636 E28.84501
G1 X159.830 Y77.847 E28.88609
G1 X160.251 Y79.109 E28.92718
G1 X160.539 Y80.408 E28.96826
G1 X160.643 Y81.156 E28.99158
G1 X164.222 Y114.746 E30.03467
G1 X164.282 Y115.881 E30.06978
G1 X164.282 Y119.069 E30.16821
G1 X163.884 Y121.962 E30.25840
G1 X163.146 Y123.869 E30.32154
G1 X162.742 Y124.677 E30.34944
G1 X161.781 Y126.242 E30.40614
G1 X158.236 Y131.041 E30.59039
G1 X157.813 Y131.581 E30.61156
G1 X157.054 Y132.422 E30.64654
G1 X136.914 Y152.562 E31.52604
G1 X136.081 Y153.313 E31.56068
G1 X134.836 Y154.217 E31.60819
G1 X133.864 Y154.779 E31.64285
G1 X132.653 Y155.330 E31.68393
G1 X131.187 Y155.806 E31.73154
G1 X129.885 Y156.071 E31.77255
G1 X128.770 Y156.189 E31.80720
G1 X128.000 Y156.214 E31.83097
G1 X70.000 Y156.214 E33.62195
G1 X69.228 Y156.188 E33.64582
G1 X67.919 Y156.040 E33.68647
G1 X66.811 Y155.805 E33.72145
G1 X65.542 Y155.405 E33.76253
G1 X64.323 Y154.874 E33.80362
G1 X63.164 Y154.217 E33.84473
G1 X62.083 Y153.445 E33.88576
G1 X61.087 Y152.564 E33.92681
G1 X60.187 Y151.581 E33.96797
G1 X59.397 Y150.511 E34.00904
G1 X58.626 Y149.177 E34.05661
G1 X58.170 Y148.153 E34.09123
G1 X57.749 Y146.891 E34.13231
G1 X57.429 Y145.385 E34.17986
G1 X57.311 Y144.270 E34.21449
G1 X57.286 Y143.500 E34.23827
G1 X57.286 Y62.500 E36.73946
G1 X57.311 Y61.730 E36.76325
G1 X57.462 Y60.407 E36.80436
G1 X57.745 Y59.122 E36.84502
G1 X58.095 Y58.042 E36.88006
G1 X58.626 Y56.823 E36.92113
G1 X59.283 Y55.664 E36.96224
G1 X60.056 Y54.582 E37.00331
G1 X60.270 Y54.327 E37.01359
G1 X60.565 Y54.533 F8400.000
G1 X61.338 Y53.690 E37.04889 F2340.000
G1 X62.306 Y52.833 E37.08882
G1 X63.359 Y52.082 E37.12876
G1 X64.485 Y51.445 E37.16870
G1 X65.671 Y50.928 E37.20864
G1 X66.891 Y50.543 E37.24815
G1 X67.964 Y50.314 E37.28203
G1 X69.249 Y50.168 E37.32196
G1 X70.000 Y50.143 E37.34517
G1 X128.000 Y50.143 E39.13615
G1 X128.542 Y50.157 E39.15289
G1 X130.036 Y50.314 E39.19928 F2340.000
G1 X131.286 Y50.590 E39.23880
G1 X132.330 Y50.929 E39.27269
G1 X133.702 Y51.540 E39.31907
G1 X134.817 Y52.196 E39.35903
G1 X135.856 Y52.965 E39.39894
G1 X136.661 Y53.690 E39.43240
G1 X156.810 Y73.838 E40.31227
G1 X157.535 Y74.644 E40.34575
G1 X158.304 Y75.683 E40.38567
G1 X158.960 Y76.798 E40.42561
G1 X159.496 Y77.975 E40.46554
G1 X159.906 Y79.201 E40.50547
G1 X160.186 Y80.464 E40.54540
G1 X160.288 Y81.194 E40.56816
G1 X163.867 Y114.784 E41.61125
G1 X163.925 Y115.881 E41.64518
G1 X163.925 Y119.069 E41.74362
G1 X163.527 Y121.912 E41.83229
G1 X162.827 Y123.709 E41.89183
G1 X162.422 Y124.517 E41.91973
G1 X161.494 Y126.030 E41.97454
G1 X157.949 Y130.829 E42.15879
G1 X157.535 Y131.356 E42.17947
G1 X156.802 Y132.170 E42.21330
G1 X136.662 Y152.310 E43.09280
G1 X135.856 Y153.035 E43.12628
G1 X134.641 Y153.918 E43.17264
G1 X133.702 Y154.460 E43.20614
G1 X132.525 Y154.996 E43.24606
G1 X131.095 Y155.461 E43.29252
G1 X129.829 Y155.719 E43.33238
G1 X128.751 Y155.832 E43.36587
G1 X128.000 Y155.857 E43.38907
G1 X70.000 Y155.857 E45.18005
G1 X69.246 Y155.832 E45.20333
G1 X67.977 Y155.688 E45.24279
G1 X66.903 Y155.460 E45.27667
G1 X65.670 Y155.071 E45.31659
G1 X64.485 Y154.555 E45.35652
G1 X63.359 Y153.918 E45.39648
G1 X62.307 Y153.168 E45.43636
G1 X61.340 Y152.311 E45.47626
G1 X60.465 Y151.356 E45.51626
G1 X59.696 Y150.317 E45.55617
G1 X58.945 Y149.015 E45.60259
G1 X58.504 Y148.025 E45.63606
G1 X58.094 Y146.799 E45.67598
G1 X57.781 Y145.329 E45.72237
G1 X57.668 Y144.251 E45.75585
G1 X57.643 Y143.500 E45.77906
G1 X57.643 Y62.500 E48.28025
G1 X57.668 Y61.749 E48.30346
G1 X57.814 Y60.463 E48.34342
G1 X58.091 Y59.213 E48.38294
G1 X58.429 Y58.170 E48.41680
G1 X58.944 Y56.985 E48.45672
G1 X59.582 Y55.859 E48.49668
G1 X60.333 Y54.806 E48.53660
G1 X60.535 Y54.566 E48.54629
G1 E46.54629 F2400.00000
G92 E0
G1 X134.698 Y125.960 F8400.000
G1 E2.00000 F2400.00000
G1 X134.245 Y126.226 E2.01622 F1755.000
G1 X133.422 Y126.789 E2.04702
G1 X132.678 Y127.407 E2.07689
G1 X132.283 Y127.781 E2.09369
G1 X131.927 Y128.154 E2.10961
G1 X131.308 Y128.899 E2.13950
G1 X130.720 Y129.753 E2.17152
G1 X130.249 Y130.599 E2.20142
G1 X130.016 Y131.090 E2.21822
G1 X129.819 Y131.567 E2.23415
G1 X129.502 Y132.513 E2.26496
G1 X129.271 Y133.494 E2.29609
G1 X129.133 Y134.482 E2.32690
G1 X129.097 Y135.005 E2.34308
G1 X129.075 Y143.636 E2.60959
G1 X128.987 Y143.940 E2.61935
G1 X128.806 Y144.226 E2.62981
G1 X128.540 Y144.436 E2.64029
G1 X128.246 Y144.555 E2.65008
G1 X127.952 Y144.586 E2.65920
G1 X70.024 Y144.586 E4.44796
G1 X69.666 Y144.528 E4.45916
G1 X69.383 Y144.391 E4.46888
G1 X69.197 Y144.223 E4.47660
G1 X69.050 Y144.021 E4.48433
G1 X68.945 Y143.734 E4.49374
G1 X68.914 Y143.450 E4.50258
G1 X68.914 Y62.547 E7.00077
G1 X68.964 Y62.185 E7.01207
G1 X69.111 Y61.881 E7.02251
G1 X69.293 Y61.679 E7.03089
G1 X69.551 Y61.517 E7.04030
G1 X69.777 Y61.443 E7.04765
G1 X70.048 Y61.414 E7.05605
G1 X128.127 Y61.424 E8.84946
G1 X128.463 Y61.520 E8.86025 F1755.000
G1 X128.723 Y61.697 E8.86997
G1 X128.927 Y61.938 E8.87972
G1 X129.055 Y62.254 E8.89025
G1 X129.086 Y62.548 E8.89939
G1 X129.097 Y70.994 E9.16018
G1 X129.133 Y71.518 E9.17638
G1 X129.271 Y72.506 E9.20719
G1 X129.502 Y73.487 E9.23832
G1 X129.819 Y74.433 E9.26912
G1 X130.016 Y74.909 E9.28502
G1 X130.234 Y75.374 E9.30091
G1 X130.704 Y76.220 E9.33079
G1 X131.289 Y77.077 E9.36282
G1 X131.927 Y77.845 E9.39366
G1 X132.282 Y78.218 E9.40955
G1 X132.655 Y78.573 E9.42545
G1 X133.414 Y79.204 E9.45593
G1 X133.840 Y79.511 E9.47215
G1 X134.689 Y80.036 E9.50295
G1 X135.582 Y80.480 E9.53376
G1 X136.057 Y80.677 E9.54966
G1 X136.541 Y80.852 E9.56555
G1 X137.501 Y81.125 E9.59636
G1 X138.492 Y81.310 E9.62749
G1 X139.495 Y81.403 E9.65858
G1 X148.136 Y81.425 E9.92542
G1 X148.438 Y81.512 E9.93511
G1 X148.643 Y81.632 E9.94246
G1 X148.821 Y81.792 E9.94985
G1 X148.926 Y81.938 E9.95539
G1 X149.028 Y82.166 E9.96311
G1 X149.080 Y82.411 E9.97083
G1 X149.086 Y123.476 E11.23889
G1 X149.028 Y123.834 E11.25009
G1 X148.926 Y124.062 E11.25781
G1 X148.723 Y124.303 E11.26753
G1 X148.540 Y124.436 E11.27451
G1 X148.334 Y124.528 E11.28149
G1 X148.112 Y124.575 E11.28850
G1 X139.495 Y124.597 E11.55459
G1 X138.492 Y124.690 E11.58569
G1 X137.511 Y124.873 E11.61649
G1 X137.003 Y125.005 E11.63271
G1 X136.067 Y125.319 E11.66319
G1 X135.582 Y125.520 E11.67941
G1 X134.738 Y125.940 E11.70850
G1 X134.868 Y126.274 F8400.000
G1 X134.437 Y126.527 E11.72396 F1755.000
G1 X133.638 Y127.075 E11.75387
G1 X132.915 Y127.674 E11.78287
G1 X132.194 Y128.392 E11.81429
G1 X131.593 Y129.114 E11.84329
G1 X131.024 Y129.941 E11.87429
G1 X130.566 Y130.762 E11.90331
G1 X130.153 Y131.692 E11.93474
G1 X129.845 Y132.611 E11.96465
G1 X129.622 Y133.560 E11.99476
G1 X129.488 Y134.519 E12.02468
G1 X129.454 Y135.018 E12.04011
G1 X129.432 Y143.665 E12.30711
G1 X129.413 Y143.785 E12.31088
G1 X129.315 Y144.086 E12.32063
G1 X129.158 Y144.359 E12.33038
G1 X129.072 Y144.465 E12.33459
G1 X128.975 Y144.561 E12.33880
G1 X128.720 Y144.747 E12.34856
G1 X128.442 Y144.871 E12.35796
G1 X128.312 Y144.907 E12.36211
G1 X127.971 Y144.943 E12.37271
G1 X70.015 Y144.943 E14.16234
G1 X69.864 Y144.935 E14.16700
G1 X69.555 Y144.869 E14.17674
G1 X69.267 Y144.741 E14.18649
G1 X69.165 Y144.675 E14.19025
G1 X68.930 Y144.463 E14.20000
G1 X68.744 Y144.208 E14.20975
G1 X68.689 Y144.099 E14.21352
G1 X68.595 Y143.810 E14.22291
G1 X68.557 Y143.469 E14.23349
G1 X68.557 Y62.529 E16.73286
G1 X68.591 Y62.197 E16.74316
G1 X68.625 Y62.066 E16.74732
G1 X68.754 Y61.776 E16.75712
G1 X68.826 Y61.663 E16.76127
G1 X69.046 Y61.419 E16.77142
G1 X69.141 Y61.342 E16.77519
G1 X69.404 Y61.190 E16.78457
G1 X69.702 Y61.091 E16.79425
G1 X70.029 Y61.057 E16.80441
G1 X128.154 Y61.067 E18.59924
G1 X128.287 Y61.088 E18.60340 F1755.000
G1 X128.600 Y61.189 E18.61355
G1 X128.708 Y61.244 E18.61731
G1 X128.963 Y61.430 E18.62706
G1 X129.175 Y61.665 E18.63681
G1 X129.241 Y61.767 E18.64058
G1 X129.372 Y62.058 E18.65043
G1 X129.407 Y62.188 E18.65457
G1 X129.443 Y62.530 E18.66519
G1 X129.454 Y70.981 E18.92617
G1 X129.488 Y71.481 E18.94162
G1 X129.622 Y72.440 E18.97153
G1 X129.845 Y73.389 E19.00165
G1 X130.153 Y74.308 E19.03156
G1 X130.342 Y74.764 E19.04682
G1 X130.552 Y75.211 E19.06207
G1 X131.009 Y76.032 E19.09108
G1 X131.574 Y76.862 E19.12208
G1 X132.194 Y77.608 E19.15202
G1 X132.535 Y77.965 E19.16727
G1 X132.892 Y78.306 E19.18253
G1 X133.633 Y78.921 E19.21225
G1 X134.039 Y79.213 E19.22770
G1 X134.863 Y79.723 E19.25762
G1 X135.730 Y80.155 E19.28753
G1 X136.186 Y80.344 E19.30279
G1 X136.651 Y80.512 E19.31805
G1 X137.583 Y80.777 E19.34796
G1 X138.541 Y80.956 E19.37807
G1 X139.512 Y81.046 E19.40817
G1 X148.165 Y81.068 E19.67536
G1 X148.285 Y81.087 E19.67913
G1 X148.584 Y81.184 E19.68884
G1 X148.855 Y81.342 E19.69852
G1 X149.081 Y81.546 E19.70791
G1 X149.241 Y81.767 E19.71633
G1 X149.369 Y82.055 E19.72608
G1 X149.435 Y82.364 E19.73583
G1 X149.443 Y123.485 E21.00562
G1 X149.435 Y123.636 E21.01028
G1 X149.369 Y123.945 E21.02003
G1 X149.241 Y124.233 E21.02977
G1 X149.175 Y124.335 E21.03353
G1 X148.963 Y124.570 E21.04328
G1 X148.720 Y124.747 E21.05258
G1 X148.445 Y124.869 E21.06187
G1 X148.150 Y124.932 E21.07119
G1 X139.512 Y124.954 E21.33792
G1 X138.541 Y125.044 E21.36801
G1 X137.589 Y125.222 E21.39793
G1 X137.105 Y125.347 E21.41339
G1 X136.192 Y125.653 E21.44310
G1 X135.730 Y125.845 E21.45856
G1 X134.909 Y126.254 E21.48688
G1 X135.039 Y126.588 F8400.000
G1 X134.628 Y126.829 E21.50157 F877.500
G1 X133.853 Y127.360 E21.53059
G1 X133.152 Y127.941 E21.55872
G1 X132.461 Y128.630 E21.58885
G1 X131.878 Y129.330 E21.61697
G1 X131.328 Y130.130 E21.64696
G1 X130.884 Y130.926 E21.67508
G1 X130.488 Y131.817 E21.70522
G1 X130.189 Y132.709 E21.73424
G1 X129.973 Y133.626 E21.76333
G1 X129.844 Y134.557 E21.79236
G1 X129.811 Y135.031 E21.80704
G1 X129.789 Y143.693 E22.07452
G1 X129.761 Y143.869 E22.08002
G1 X129.643 Y144.232 E22.09179
G1 X129.453 Y144.562 E22.10357
G1 X129.337 Y144.704 E22.10922
G1 X129.208 Y144.834 E22.11488
G1 X128.899 Y145.058 E22.12666
G1 X128.563 Y145.209 E22.13805
G1 X128.379 Y145.259 E22.14394
G1 X127.990 Y145.300 E22.15602
G1 X70.005 Y145.300 E23.94651
G1 X69.817 Y145.290 E23.95233
G1 X69.444 Y145.211 E23.96411
G1 X69.096 Y145.056 E23.97588
G1 X68.947 Y144.959 E23.98138
G1 X68.663 Y144.704 E23.99315
G1 X68.439 Y144.395 E24.00493
G1 X68.358 Y144.237 E24.01042
G1 X68.244 Y143.886 E24.02181
G1 X68.200 Y143.489 E24.03414
G1 X68.200 Y62.510 E26.53468
G1 X68.239 Y62.133 E26.54640
G1 X68.287 Y61.948 E26.55229
G1 X68.439 Y61.607 E26.56383
G1 X68.542 Y61.446 E26.56972
