; generated by Slic3r 1.2.9 on 2018-01-28 at 23:39:53

; external perimeters extrusion width = 0.30mm
; perimeters extrusion width = 0.40mm
; infill extrusion width = 0.40mm
; solid infill extrusion width = 0.40mm
; top infill extrusion width = 0.40mm
; support material extrusion width = 0.30mm

M107
M190 S75 ; set bed temperature
M104 S215 ; set temperature
G28 ; home all axes
G1 Z5 F5000 ; lift nozzle

M109 S215 ; wait for temperature to be reached
G21 ; set units to millimeters
G90 ; use absolute coordinates
M82 ; use absolute distances for extrusion
G92 E0
G1 Z0.200 F8400.000
G1 E-2.00000 F2400.00000
G92 E0
G1 X69.501 Y53.632 F8400.000
G1 E2.00000 F2400.00000
G1 X70.432 Y52.581 E2.04337 F2340.000
G1 X71.470 Y51.632 E2.08679
G1 X72.600 Y50.797 E2.13018
G1 X73.811 Y50.085 E2.17357
G1 X75.091 Y49.504 E2.21697
G1 X76.424 Y49.059 E2.26037
G1 X77.796 Y48.756 E2.30376
G1 X79.193 Y48.598 E2.34716
G1 X80.000 Y48.572 E2.37210
G1 X132.000 Y48.572 E3.97780
G1 X132.598 Y48.587 E3.99627
G1 X134.204 Y48.756 E4.04612 F2340.000
G1 X135.577 Y49.059 E4.08954
G1 X136.909 Y49.504 E4.13292
G1 X138.002 Y49.990 E4.16985
G1 X139.224 Y50.683 E4.21324
G1 X140.368 Y51.500 E4.25664
G1 X141.567 Y52.581 E4.30649
G1 X142.499 Y53.632 E4.34988
G1 X143.203 Y54.600 E4.38683
G1 X143.915 Y55.811 E4.43021
G1 X144.496 Y57.091 E4.47361
G1 X144.713 Y57.675 E4.49286
G1 X152.811 Y81.293 E5.26383
G1 X153.428 Y85.000 E5.37987
G1 X153.428 Y98.000 E5.78129
G1 X153.253 Y99.993 E5.84308
G1 X145.209 Y145.409 E7.26729
G1 X144.941 Y146.576 E7.30426
G1 X144.496 Y147.909 E7.34767
G1 X144.010 Y149.002 E7.38461
G1 X143.317 Y150.224 E7.42799
G1 X142.368 Y151.530 E7.47785
G1 X141.567 Y152.419 E7.51479
G1 X140.530 Y153.368 E7.55818
G1 X139.224 Y154.317 E7.60803
G1 X138.014 Y155.004 E7.65102
G1 X136.909 Y155.496 E7.68836
G1 X135.371 Y155.996 E7.73829
G1 X134.204 Y156.244 E7.77514
G1 X132.810 Y156.402 E7.81846
G1 X132.000 Y156.428 E7.84348
G1 X80.000 Y156.428 E9.44919
G1 X79.190 Y156.402 E9.47421
G1 X77.796 Y156.244 E9.51754
G1 X76.626 Y155.995 E9.55446
G1 X75.286 Y155.571 E9.59786
G1 X73.998 Y155.010 E9.64125
G1 X72.776 Y154.317 E9.68464
G1 X71.470 Y153.368 E9.73449
G1 X70.433 Y152.419 E9.77789
G1 X69.500 Y151.368 E9.82129
G1 X68.682 Y150.223 E9.86473
G1 X67.990 Y149.002 E9.90807
G1 X67.504 Y147.909 E9.94501
G1 X67.059 Y146.576 E9.98840
G1 X66.723 Y144.997 E10.03826
G1 X66.598 Y143.807 E10.07520
G1 X66.572 Y143.000 E10.10013
G1 X66.572 Y62.000 E12.60133
G1 X66.598 Y61.193 E12.62627
G1 X66.756 Y59.795 E12.66969
G1 X67.056 Y58.437 E12.71265
G1 X67.429 Y57.286 E12.75000
G1 X68.085 Y55.812 E12.79984
G1 X68.683 Y54.776 E12.83677
G1 X69.474 Y53.669 E12.87879
G1 X69.778 Y53.857 F8400.000
G1 X70.685 Y52.834 E12.92101 F2340.000
G1 X71.695 Y51.910 E12.96327
G1 X72.795 Y51.097 E13.00551
G1 X73.974 Y50.404 E13.04774
G1 X75.219 Y49.837 E13.08999
G1 X76.517 Y49.404 E13.13223
G1 X77.852 Y49.109 E13.17447
G1 X79.212 Y48.955 E13.21671
G1 X80.000 Y48.929 E13.24107
G1 X132.000 Y48.929 E14.84678
G1 X132.579 Y48.944 E14.86467
G1 X134.148 Y49.109 E14.91337 F2340.000
G1 X135.484 Y49.404 E14.95563
G1 X136.781 Y49.837 E14.99786
G1 X137.840 Y50.308 E15.03364
G1 X139.030 Y50.983 E15.07587
G1 X140.153 Y51.786 E15.11852
G1 X141.315 Y52.833 E15.16681
G1 X142.222 Y53.857 E15.20905
G1 X142.903 Y54.795 E15.24484
G1 X143.597 Y55.974 E15.28707
G1 X144.163 Y57.219 E15.32932
G1 X144.375 Y57.791 E15.34816
G1 X152.473 Y81.409 E16.11914
G1 X153.071 Y85.000 E16.23155
G1 X153.071 Y98.000 E16.63297
G1 X152.902 Y99.931 E16.69282
G1 X144.858 Y145.347 E18.11704
G1 X144.596 Y146.483 E18.15306
G1 X144.163 Y147.781 E18.19531
G1 X143.692 Y148.840 E18.23110
G1 X143.017 Y150.030 E18.27333
G1 X142.090 Y151.306 E18.32203
G1 X141.315 Y152.167 E18.35782
G1 X140.306 Y153.090 E18.40005
G1 X139.030 Y154.017 E18.44875
G1 X137.851 Y154.686 E18.49058
G1 X136.781 Y155.163 E18.52676
G1 X135.279 Y155.651 E18.57554
G1 X134.148 Y155.891 E18.61124
G1 X132.791 Y156.045 E18.65341
G1 X132.000 Y156.071 E18.67785
G1 X80.000 Y156.071 E20.28356
G1 X79.209 Y156.045 E20.30800
G1 X77.852 Y155.891 E20.35017
G1 X76.719 Y155.650 E20.38595
G1 X75.414 Y155.238 E20.42819
G1 X74.160 Y154.692 E20.47043
G1 X72.970 Y154.017 E20.51266
G1 X71.694 Y153.090 E20.56136
G1 X70.685 Y152.167 E20.60360
G1 X69.778 Y151.143 E20.64585
G1 X68.982 Y150.028 E20.68813
G1 X68.308 Y148.840 E20.73032
G1 X67.837 Y147.781 E20.76610
G1 X67.404 Y146.484 E20.80834
G1 X67.076 Y144.941 E20.85704
G1 X66.955 Y143.788 E20.89283
G1 X66.929 Y143.000 E20.91719
G1 X66.929 Y62.000 E23.41838
G1 X66.955 Y61.211 E23.44275
G1 X67.109 Y59.851 E23.48502
G1 X67.401 Y58.529 E23.52682
G1 X67.762 Y57.414 E23.56302
G1 X68.403 Y55.974 E23.61170
G1 X68.983 Y54.970 E23.64748
G1 X69.752 Y53.893 E23.68834
G1 X70.056 Y54.082 F8400.000
G1 X70.937 Y53.086 E23.72941 F2340.000
G1 X71.919 Y52.187 E23.77052
G1 X72.989 Y51.396 E23.81160
G1 X74.136 Y50.722 E23.85268
G1 X75.347 Y50.170 E23.89377
G1 X76.609 Y49.749 E23.93486
G1 X77.908 Y49.461 E23.97594
G1 X79.230 Y49.311 E24.01704
G1 X80.000 Y49.286 E24.04082
G1 X132.000 Y49.286 E25.64652
G1 X132.561 Y49.301 E25.66384
G1 X134.092 Y49.461 E25.71138 F2340.000
G1 X135.392 Y49.749 E25.75249
G1 X136.653 Y50.170 E25.79356
G1 X137.678 Y50.627 E25.82819
G1 X138.835 Y51.282 E25.86927
G1 X139.918 Y52.055 E25.91036
G1 X141.062 Y53.086 E25.95790
G1 X141.944 Y54.082 E25.99898
G1 X142.604 Y54.989 E26.03362
G1 X143.278 Y56.136 E26.07470
G1 X143.830 Y57.347 E26.11579
G1 X144.037 Y57.907 E26.13423
G1 X152.135 Y81.525 E26.90521
G1 X152.714 Y85.000 E27.01399
G1 X152.714 Y98.000 E27.41542
G1 X152.550 Y99.869 E27.47334
G1 X144.506 Y145.284 E28.89756
G1 X144.251 Y146.391 E28.93262
G1 X143.830 Y147.653 E28.97372
G1 X143.373 Y148.678 E29.00836
G1 X142.718 Y149.835 E29.04943
G1 X141.813 Y151.081 E29.09697
G1 X141.062 Y151.914 E29.13161
G1 X140.081 Y152.813 E29.17269
G1 X138.835 Y153.718 E29.22023
G1 X137.689 Y154.367 E29.26091
G1 X136.653 Y154.830 E29.29594
G1 X135.187 Y155.306 E29.34356
G1 X134.092 Y155.539 E29.37811
G1 X132.772 Y155.688 E29.41912
G1 X132.000 Y155.714 E29.44299
G1 X80.000 Y155.714 E31.04869
G1 X79.228 Y155.688 E31.07256
G1 X77.908 Y155.538 E31.11358
G1 X76.811 Y155.305 E31.14820
G1 X75.542 Y154.905 E31.18928
G1 X74.322 Y154.373 E31.23037
G1 X73.165 Y153.718 E31.27145
G1 X71.919 Y152.813 E31.31899
G1 X70.938 Y151.914 E31.36008
G1 X70.055 Y150.918 E31.40117
G1 X69.281 Y149.834 E31.44230
G1 X68.627 Y148.678 E31.48334
G1 X68.170 Y147.653 E31.51797
G1 X67.749 Y146.391 E31.55905
G1 X67.429 Y144.885 E31.60660
G1 X67.311 Y143.770 E31.64123
G1 X67.286 Y143.000 E31.66501
G1 X67.286 Y62.000 E34.16621
G1 X67.311 Y61.230 E34.19000
G1 X67.462 Y59.907 E34.23111
G1 X67.745 Y58.622 E34.27176
G1 X68.095 Y57.542 E34.30680
G1 X68.722 Y56.136 E34.35433
G1 X69.282 Y55.165 E34.38896
G1 X70.029 Y54.118 E34.42866
G1 X70.333 Y54.306 F8400.000
G1 X71.190 Y53.339 E34.46858 F2340.000
G1 X72.144 Y52.465 E34.50853
G1 X73.184 Y51.696 E34.54846
G1 X74.298 Y51.040 E34.58839
G1 X75.475 Y50.504 E34.62833
G1 X76.701 Y50.094 E34.66826
G1 X77.964 Y49.814 E34.70819
G1 X79.249 Y49.668 E34.74813
G1 X80.000 Y49.643 E34.77133
G1 X132.000 Y49.643 E36.37703
G1 X132.542 Y49.657 E36.39378
G1 X134.036 Y49.814 E36.44017 F2340.000
G1 X135.299 Y50.094 E36.48012
G1 X136.525 Y50.504 E36.52003
G1 X137.516 Y50.945 E36.55351
G1 X138.641 Y51.582 E36.59343
G1 X139.693 Y52.333 E36.63337
G1 X140.810 Y53.338 E36.67976
G1 X141.667 Y54.306 E36.71969
G1 X142.304 Y55.184 E36.75317
G1 X142.960 Y56.298 E36.79309
G1 X143.496 Y57.475 E36.83303
G1 X143.699 Y58.023 E36.85108
G1 X151.797 Y81.641 E37.62205
G1 X152.357 Y85.000 E37.72721
G1 X152.357 Y98.000 E38.12864
G1 X152.198 Y99.806 E38.18463
G1 X144.155 Y145.222 E39.60885
G1 X143.906 Y146.298 E39.64295
G1 X143.496 Y147.525 E39.68289
G1 X143.055 Y148.516 E39.71638
G1 X142.418 Y149.641 E39.75630
G1 X141.535 Y150.856 E39.80269
G1 X140.810 Y151.662 E39.83617
G1 X139.856 Y152.535 E39.87610
G1 X138.641 Y153.418 E39.92249
G1 X137.526 Y154.050 E39.96207
G1 X136.525 Y154.496 E39.99589
G1 X135.094 Y154.961 E40.04235
G1 X134.036 Y155.186 E40.07575
G1 X132.754 Y155.332 E40.11561
G1 X132.000 Y155.357 E40.13889
G1 X80.000 Y155.357 E41.74460
G1 X79.246 Y155.332 E41.76788
G1 X77.964 Y155.186 E41.80775
G1 X76.903 Y154.960 E41.84122
G1 X75.670 Y154.571 E41.88115
G1 X74.484 Y154.055 E41.92108
G1 X73.359 Y153.418 E41.96101
G1 X72.144 Y152.535 E42.00740
G1 X71.190 Y151.662 E42.04733
G1 X70.333 Y150.693 E42.08727
G1 X69.581 Y149.640 E42.12724
G1 X68.951 Y148.527 E42.16672
G1 X68.504 Y147.525 E42.20060
G1 X68.094 Y146.299 E42.24053
G1 X67.781 Y144.829 E42.28692
G1 X67.668 Y143.751 E42.32040
G1 X67.643 Y143.000 E42.34361
G1 X67.643 Y62.000 E44.84480
G1 X67.668 Y61.249 E44.86801
G1 X67.814 Y59.963 E44.90797
G1 X68.090 Y58.714 E44.94747
G1 X68.429 Y57.670 E44.98135
G1 X69.040 Y56.298 E45.02773
G1 X69.582 Y55.359 E45.06121
G1 X70.307 Y54.343 E45.09976
G1 E43.09976 F2400.00000
G92 E0
G1 X133.086 Y97.086 F8400.000
G1 E2.00000 F2400.00000
G1 X133.086 Y142.976 E3.41704 F1755.000
G1 X133.028 Y143.334 E3.42824
G1 X132.936 Y143.540 E3.43521
G1 X132.803 Y143.723 E3.44219
G1 X132.617 Y143.891 E3.44991
G1 X132.462 Y143.980 E3.45546
G1 X132.234 Y144.055 E3.46284
G1 X131.950 Y144.086 E3.47168
G1 X80.048 Y144.086 E5.07436
G1 X79.775 Y144.057 E5.08283
G1 X79.537 Y143.980 E5.09055
G1 X79.270 Y143.796 E5.10058
G1 X79.110 Y143.618 E5.10797
G1 X79.020 Y143.462 E5.11354
G1 X78.945 Y143.234 E5.12092
G1 X78.914 Y142.950 E5.12976
G1 X78.914 Y62.048 E7.62793
G1 X78.962 Y61.688 E7.63914
G1 X79.074 Y61.438 E7.64761
G1 X79.277 Y61.197 E7.65733
G1 X79.460 Y61.064 E7.66431
G1 X79.667 Y60.972 E7.67131
G1 X79.901 Y60.922 E7.67872
G1 X80.027 Y60.914 E7.68260
G1 X132.127 Y60.924 E9.29139
G1 X132.440 Y61.013 E9.30145
G1 X132.648 Y61.132 E9.30886
G1 X132.875 Y61.365 E9.31889
G1 X132.995 Y61.573 E9.32630
G1 X133.075 Y61.887 E9.33632
G1 X133.086 Y85.914 E10.07824
G1 X141.086 Y85.914 E10.32526
G1 X141.086 Y97.086 E10.67023
G1 X133.131 Y97.086 E10.91587
G1 X133.443 Y97.443 F8400.000
G1 X133.443 Y142.985 E12.32218 F1755.000
G1 X133.435 Y143.136 E12.32684
G1 X133.369 Y143.445 E12.33659
G1 X133.247 Y143.720 E12.34588
G1 X133.070 Y143.963 E12.35518
G1 X132.835 Y144.175 E12.36492
G1 X132.599 Y144.311 E12.37335
G1 X132.310 Y144.405 E12.38273
G1 X131.969 Y144.443 E12.39332
G1 X80.029 Y144.443 E13.99718
G1 X79.701 Y144.408 E14.00738
G1 X79.400 Y144.311 E14.01713
G1 X79.293 Y144.256 E14.02085
G1 X79.029 Y144.062 E14.03098
G1 X78.826 Y143.836 E14.04037
G1 X78.689 Y143.599 E14.04880
G1 X78.595 Y143.310 E14.05819
G1 X78.557 Y142.969 E14.06878
G1 X78.557 Y62.029 E16.56813
G1 X78.593 Y61.686 E16.57878
G1 X78.625 Y61.569 E16.58254
G1 X78.759 Y61.267 E16.59274
G1 X78.825 Y61.165 E16.59650
G1 X79.037 Y60.930 E16.60625
G1 X79.280 Y60.753 E16.61554
G1 X79.555 Y60.630 E16.62485
G1 X79.853 Y60.567 E16.63425
G1 X80.016 Y60.557 E16.63930
G1 X132.154 Y60.567 E18.24925
G1 X132.287 Y60.588 E18.25341
G1 X132.586 Y60.685 E18.26312
G1 X132.850 Y60.837 E18.27252
G1 X132.955 Y60.920 E18.27666
G1 X133.165 Y61.154 E18.28637
G1 X133.318 Y61.417 E18.29577
G1 X133.367 Y61.542 E18.29992
G1 X133.432 Y61.850 E18.30962
G1 X133.443 Y85.557 E19.04168
G1 X141.443 Y85.557 E19.28870
G1 X141.443 Y97.443 E19.65572
G1 X133.488 Y97.443 E19.90137
G1 X133.800 Y97.800 F8400.000
G1 X133.800 Y142.995 E21.29693 F877.500
G1 X133.790 Y143.183 E21.30275
G1 X133.711 Y143.556 E21.31453
G1 X133.558 Y143.899 E21.32614
G1 X133.337 Y144.204 E21.33775
G1 X133.053 Y144.459 E21.34953
G1 X132.737 Y144.642 E21.36083
G1 X132.386 Y144.756 E21.37221
G1 X131.989 Y144.800 E21.38454
G1 X80.010 Y144.800 E22.98959
G1 X79.626 Y144.760 E23.00153
G1 X79.263 Y144.642 E23.01330
G1 X79.105 Y144.561 E23.01878
G1 X78.788 Y144.328 E23.03095
G1 X78.541 Y144.054 E23.04234
G1 X78.358 Y143.737 E23.05364
G1 X78.244 Y143.386 E23.06503
G1 X78.200 Y142.989 E23.07736
G1 X78.200 Y62.010 E25.57789
G1 X78.241 Y61.621 E25.58999
G1 X78.287 Y61.449 E25.59549
G1 X78.444 Y61.096 E25.60742
G1 X78.541 Y60.947 E25.61292
G1 X78.796 Y60.663 E25.62469
G1 X79.101 Y60.442 E25.63631
G1 X79.444 Y60.289 E25.64792
G1 X79.805 Y60.212 E25.65931
G1 X80.006 Y60.200 E25.66553
G1 X132.181 Y60.210 E27.27664
G1 X132.370 Y60.239 E27.28253
G1 X132.732 Y60.357 E27.29429
G1 X133.052 Y60.541 E27.30569
G1 X133.201 Y60.660 E27.31157
G1 X133.455 Y60.943 E27.32334
G1 X133.640 Y61.262 E27.33473
G1 X133.710 Y61.440 E27.34062
G1 X133.789 Y61.812 E27.35237
G1 X133.800 Y85.200 E28.07457
G1 X141.800 Y85.200 E28.32160
G1 X141.800 Y97.800 E28.71067
G1 X133.845 Y97.800 E28.95632
G1 X133.500 Y97.800 F8400.000
G1 X132.878 Y97.225 F8400.000
G1 X96.778 Y61.125 E30.53697 F975.000
G1 X96.272 Y61.125 E30.55265
G1 X132.878 Y97.731 E32.15548
G1 X132.878 Y98.238 E32.17116
G1 X95.765 Y61.125 E33.79617
G1 X95.259 Y61.125 E33.81185
G1 X132.878 Y98.744 E35.45903
G1 X132.878 Y99.250 E35.47470
G1 X94.753 Y61.125 E37.14406
G1 X94.246 Y61.125 E37.15974
G1 X132.878 Y99.757 E38.85127
G1 X132.878 Y100.263 E38.86694
G1 X93.740 Y61.125 E40.58065
G1 X93.233 Y61.125 E40.59633
G1 X132.878 Y100.769 E42.33220
G1 X132.878 Y101.276 E42.34788
G1 X92.727 Y61.124 E44.10593
G1 X92.220 Y61.124 E44.12161
G1 X132.878 Y101.782 E45.90184
G1 X132.878 Y102.288 E45.91751
G1 X91.714 Y61.124 E47.71992
G1 X91.207 Y61.124 E47.73560
G1 X132.878 Y102.795 E49.56017
G1 X132.878 Y103.301 E49.57585
G1 X90.701 Y61.124 E51.42260
G1 X90.195 Y61.124 E51.43828
G1 X132.878 Y103.807 E53.30720
G1 X132.878 Y104.314 E53.32288
G1 X89.688 Y61.124 E55.21398
G1 X89.182 Y61.124 E55.22966
G1 X132.878 Y104.820 E57.14293
G1 X132.878 Y105.326 E57.15861
G1 X88.675 Y61.124 E59.09405
G1 X88.169 Y61.124 E59.10973
G1 X132.878 Y105.833 E61.06735
G1 X132.878 Y106.339 E61.08303
G1 X87.662 Y61.123 E63.06283
G1 X87.156 Y61.123 E63.07851
G1 X132.878 Y106.845 E65.08048
G1 X132.878 Y107.352 E65.09615
G1 X86.650 Y61.123 E67.12030
G1 X86.143 Y61.123 E67.13598
G1 X132.878 Y107.858 E69.18230
G1 X132.878 Y108.364 E69.19798
G1 X85.637 Y61.123 E71.26647
G1 X85.130 Y61.123 E71.28215
G1 X132.878 Y108.871 E73.37282
G1 X132.878 Y109.377 E73.38849
G1 X84.624 Y61.123 E75.50134
G1 X84.117 Y61.123 E75.51702
G1 X132.878 Y109.883 E77.65203
G1 X132.878 Y110.390 E77.66771
G1 X83.611 Y61.123 E79.82490
G1 X83.105 Y61.123 E79.84058
G1 X132.878 Y110.896 E82.01995
G1 X132.878 Y111.402 E82.03563
G1 X82.598 Y61.122 E84.23717
G1 X82.092 Y61.122 E84.25285
G1 X132.878 Y111.909 E86.47656
G1 X132.878 Y112.415 E86.49224
G1 X81.585 Y61.122 E88.73813
G1 X81.079 Y61.122 E88.75381
G1 X132.878 Y112.921 E91.02187
G1 X132.878 Y113.428 E91.03755
G1 X80.572 Y61.122 E93.32779
G1 X80.066 Y61.122 E93.34347
G1 X132.878 Y113.934 E95.65588
G1 X132.878 Y114.440 E95.67155
G1 X79.628 Y61.190 E98.00316
G1 X79.343 Y61.411 E98.01433
G1 X132.878 Y114.947 E100.35841
G1 X132.878 Y115.453 E100.37409
G1 X79.154 Y61.729 E102.72643
G1 X79.122 Y62.203 E102.74114
G1 X132.878 Y115.959 E105.09490
G1 X132.878 Y116.466 E105.11057
G1 X79.122 Y62.709 E107.46432
G1 X79.122 Y63.216 E107.48000
G1 X132.878 Y116.972 E109.83375
G1 X132.878 Y117.478 E109.84943
G1 X79.122 Y63.722 E112.20318
G1 X79.122 Y64.228 E112.21886
G1 X132.878 Y117.985 E114.57261
G1 X132.878 Y118.491 E114.58828
G1 X79.122 Y64.735 E116.94203
G1 X79.122 Y65.241 E116.95771
G1 X132.878 Y118.997 E119.31146
G1 X132.878 Y119.504 E119.32714
G1 X79.122 Y65.747 E121.68089
G1 X79.122 Y66.254 E121.69657
G1 X132.878 Y120.010 E124.05032
G1 X132.878 Y120.516 E124.06599
G1 X79.122 Y66.760 E126.41975
G1 X79.122 Y67.266 E126.43542
G1 X132.878 Y121.023 E128.78917
G1 X132.878 Y121.529 E128.80485
G1 X79.122 Y67.773 E131.15860
G1 X79.122 Y68.279 E131.17428
G1 X132.878 Y122.035 E133.52803
G1 X132.878 Y122.542 E133.54371
G1 X79.122 Y68.785 E135.89746
G1 X79.122 Y69.292 E135.91313
G1 X132.878 Y123.048 E138.26689
G1 X132.878 Y123.554 E138.28256
G1 X79.122 Y69.798 E140.63631
G1 X79.122 Y70.304 E140.65199
G1 X132.878 Y124.061 E143.00574
G1 X132.878 Y124.567 E143.02142
G1 X79.122 Y70.811 E145.37517
G1 X79.122 Y71.317 E145.39085
G1 X132.878 Y125.073 E147.74460
G1 X132.878 Y125.580 E147.76027
G1 X79.122 Y71.823 E150.11402
G1 X79.122 Y72.330 E150.12970
G1 X132.878 Y126.086 E152.48345
