; generated by Slic3r 1.2.9 on 2018-01-28 at 22:00:23

; external perimeters extrusion width = 0.30mm
; perimeters extrusion width = 0.40mm
; infill extrusion width = 0.40mm
; solid infill extrusion width = 0.40mm
; top infill extrusion width = 0.40mm
; support material extrusion width = 0.30mm

M107
M190 S75 ; set bed temperature
M104 S215 ; set temperature
G28 ; home all axes
G1 Z5 F5000 ; lift nozzle

M109 S215 ; wait for temperature to be reached
G21 ; set units to millimeters
G90 ; use absolute coordinates
M82 ; use absolute distances for extrusion
G92 E0
G1 Z0.200 F8400.000
G1 E-2.00000 F2400.00000
G92 E0
G1 X90.683 Y55.276 F8400.000
G1 E2.00000 F2400.00000
G1 X91.501 Y54.132 E2.04340 F2340.000
G1 X92.432 Y53.081 E2.08678
G1 X93.633 Y52.000 E2.13665
G1 X94.776 Y51.183 E2.18006
G1 X95.998 Y50.490 E2.22344
G1 X97.286 Y49.929 E2.26683
G1 X98.627 Y49.505 E2.31023
G1 X100.003 Y49.223 E2.35362
G1 X101.193 Y49.098 E2.39056
G1 X102.000 Y49.072 E2.41550
G1 X118.000 Y49.072 E2.90956
G1 X118.598 Y49.087 E2.92803
G1 X119.997 Y49.223 E2.97143 F2340.000
G1 X121.374 Y49.505 E3.01482
G1 X122.909 Y50.004 E3.06467
G1 X124.188 Y50.585 E3.10807
G1 X125.400 Y51.297 E3.15146
G1 X126.530 Y52.132 E3.19486
G1 X127.567 Y53.081 E3.23825
G1 X128.368 Y53.970 E3.27519
G1 X129.203 Y55.100 E3.31858
G1 X129.915 Y56.312 E3.36198
G1 X130.496 Y57.591 E3.40537
G1 X130.941 Y58.924 E3.44877
G1 X131.244 Y60.296 E3.49216
G1 X131.402 Y61.693 E3.53556
G1 X131.428 Y62.500 E3.56050
G1 X131.428 Y143.500 E6.06169
G1 X131.402 Y144.307 E6.08663
G1 X131.277 Y145.497 E6.12357
G1 X130.941 Y147.076 E6.17342
G1 X130.496 Y148.409 E6.21681
G1 X130.010 Y149.502 E6.25375
G1 X129.203 Y150.900 E6.30360
G1 X128.368 Y152.030 E6.34699
G1 X127.567 Y152.919 E6.38394
G1 X126.368 Y153.999 E6.43378
G1 X125.400 Y154.703 E6.47072
G1 X124.189 Y155.415 E6.51411
G1 X122.726 Y156.067 E6.56355
G1 X121.372 Y156.496 E6.60741
G1 X119.997 Y156.777 E6.65075
G1 X118.807 Y156.902 E6.68770
G1 X118.000 Y156.928 E6.71263
G1 X102.000 Y156.928 E7.20669
G1 X101.190 Y156.902 E7.23172
G1 X100.003 Y156.777 E7.26858
G1 X98.424 Y156.441 E7.31842
G1 X97.091 Y155.996 E7.36181
G1 X95.998 Y155.510 E7.39875
G1 X94.776 Y154.817 E7.44215
G1 X93.634 Y154.001 E7.48549
G1 X92.573 Y153.060 E7.52926
G1 X91.500 Y151.868 E7.57879
G1 X90.682 Y150.723 E7.62223
G1 X89.990 Y149.502 E7.66558
G1 X89.504 Y148.409 E7.70251
G1 X89.059 Y147.076 E7.74590
G1 X88.723 Y145.497 E7.79576
G1 X88.598 Y144.307 E7.83270
G1 X88.572 Y143.500 E7.85763
G1 X88.572 Y62.500 E10.35883
G1 X88.598 Y61.693 E10.38377
G1 X88.723 Y60.503 E10.42070
G1 X89.059 Y58.923 E10.47058
G1 X89.504 Y57.590 E10.51397
G1 X89.990 Y56.498 E10.55088
G1 X90.661 Y55.315 E10.59289
G1 X90.983 Y55.470 F8400.000
G1 X91.778 Y54.357 E10.63513 F2340.000
G1 X92.685 Y53.334 E10.67735
G1 X93.857 Y52.278 E10.72607
G1 X94.971 Y51.482 E10.76833
G1 X96.160 Y50.808 E10.81055
G1 X97.414 Y50.262 E10.85279
G1 X98.719 Y49.850 E10.89504
G1 X100.059 Y49.576 E10.93727
G1 X101.212 Y49.455 E10.97306
G1 X102.000 Y49.429 E10.99742
G1 X118.000 Y49.429 E11.49148
G1 X118.579 Y49.444 E11.50938
G1 X119.941 Y49.576 E11.55162 F2340.000
G1 X121.281 Y49.850 E11.59386
G1 X122.781 Y50.337 E11.64256
G1 X124.026 Y50.903 E11.68480
G1 X125.205 Y51.597 E11.72703
G1 X126.306 Y52.410 E11.76928
G1 X127.315 Y53.333 E11.81152
G1 X128.222 Y54.357 E11.85376
G1 X129.010 Y55.460 E11.89562
G1 X129.597 Y56.474 E11.93178
G1 X130.163 Y57.719 E11.97402
G1 X130.596 Y59.017 E12.01627
G1 X130.891 Y60.352 E12.05850
G1 X131.045 Y61.711 E12.10075
G1 X131.071 Y62.500 E12.12511
G1 X131.071 Y143.500 E14.62630
G1 X131.045 Y144.288 E14.65066
G1 X130.924 Y145.441 E14.68645
G1 X130.650 Y146.781 E14.72869
G1 X130.163 Y148.281 E14.77738
G1 X129.692 Y149.340 E14.81317
G1 X129.017 Y150.530 E14.85541
G1 X128.090 Y151.805 E14.90410
G1 X127.315 Y152.667 E14.93989
G1 X126.306 Y153.590 E14.98213
G1 X125.030 Y154.517 E15.03083
G1 X123.852 Y155.186 E15.07265
G1 X122.781 Y155.663 E15.10884
G1 X121.280 Y156.151 E15.15759
G1 X119.941 Y156.424 E15.19978
G1 X118.788 Y156.545 E15.23557
G1 X118.000 Y156.571 E15.25993
G1 X102.000 Y156.571 E15.75399
G1 X101.209 Y156.545 E15.77844
G1 X100.059 Y156.424 E15.81414
G1 X98.516 Y156.096 E15.86283
G1 X97.219 Y155.663 E15.90507
G1 X96.160 Y155.192 E15.94086
G1 X94.970 Y154.517 E15.98309
G1 X93.858 Y153.723 E16.02529
G1 X92.824 Y152.806 E16.06798
G1 X91.778 Y151.643 E16.11628
G1 X90.982 Y150.528 E16.15856
G1 X90.308 Y149.340 E16.20075
G1 X89.837 Y148.281 E16.23653
G1 X89.404 Y146.984 E16.27877
G1 X89.076 Y145.441 E16.32747
G1 X88.955 Y144.288 E16.36326
G1 X88.929 Y143.500 E16.38762
G1 X88.929 Y62.500 E18.88881
G1 X88.955 Y61.711 E18.91318
G1 X89.076 Y60.559 E18.94895
G1 X89.404 Y59.016 E18.99768
G1 X89.837 Y57.718 E19.03991
G1 X90.308 Y56.660 E19.07568
G1 X90.960 Y55.509 E19.11652
G1 X91.282 Y55.665 F8400.000
G1 X92.056 Y54.582 E19.15762 F2340.000
G1 X92.937 Y53.586 E19.19868
G1 X94.082 Y52.555 E19.24625
G1 X95.165 Y51.782 E19.28735
G1 X96.322 Y51.127 E19.32842
G1 X97.542 Y50.595 E19.36950
G1 X98.811 Y50.195 E19.41060
G1 X100.115 Y49.929 E19.45167
G1 X101.230 Y49.811 E19.48631
G1 X102.000 Y49.786 E19.51009
G1 X118.000 Y49.786 E20.00415
G1 X118.561 Y49.801 E20.02147
G1 X119.885 Y49.929 E20.06256 F2340.000
G1 X121.189 Y50.195 E20.10364
G1 X122.653 Y50.670 E20.15119
G1 X123.864 Y51.222 E20.19228
G1 X125.011 Y51.896 E20.23336
G1 X126.081 Y52.687 E20.27445
G1 X127.062 Y53.586 E20.31554
G1 X127.813 Y54.419 E20.35016
G1 X128.604 Y55.489 E20.39125
G1 X129.278 Y56.636 E20.43234
G1 X129.830 Y57.847 E20.47342
G1 X130.251 Y59.109 E20.51451
G1 X130.539 Y60.408 E20.55560
G1 X130.689 Y61.730 E20.59668
G1 X130.714 Y62.500 E20.62047
G1 X130.714 Y143.500 E23.12166
G1 X130.689 Y144.270 E23.14545
G1 X130.571 Y145.385 E23.18008
G1 X130.305 Y146.689 E23.22116
G1 X129.830 Y148.153 E23.26870
G1 X129.373 Y149.178 E23.30334
G1 X128.718 Y150.335 E23.34442
G1 X127.813 Y151.581 E23.39196
G1 X127.062 Y152.414 E23.42660
G1 X126.081 Y153.313 E23.46768
G1 X124.835 Y154.218 E23.51522
G1 X123.689 Y154.867 E23.55590
G1 X122.653 Y155.330 E23.59093
G1 X121.187 Y155.806 E23.63853
G1 X119.885 Y156.071 E23.67956
G1 X118.770 Y156.189 E23.71420
G1 X118.000 Y156.214 E23.73798
G1 X102.000 Y156.214 E24.23204
G1 X101.228 Y156.188 E24.25591
G1 X100.115 Y156.071 E24.29046
G1 X98.609 Y155.751 E24.33800
G1 X97.347 Y155.330 E24.37908
G1 X96.322 Y154.873 E24.41371
G1 X95.165 Y154.218 E24.45480
G1 X94.083 Y153.445 E24.49583
G1 X93.076 Y152.553 E24.53738
G1 X92.055 Y151.418 E24.58452
G1 X91.281 Y150.334 E24.62565
G1 X90.627 Y149.178 E24.66669
G1 X90.170 Y148.153 E24.70131
G1 X89.749 Y146.891 E24.74239
G1 X89.429 Y145.385 E24.78994
G1 X89.311 Y144.270 E24.82457
G1 X89.286 Y143.500 E24.84836
G1 X89.286 Y62.500 E27.34955
G1 X89.311 Y61.730 E27.37334
G1 X89.429 Y60.615 E27.40796
G1 X89.749 Y59.108 E27.45553
G1 X90.171 Y57.846 E27.49661
G1 X90.626 Y56.822 E27.53122
G1 X91.260 Y55.704 E27.57091
G1 X91.582 Y55.859 F8400.000
G1 X92.333 Y54.806 E27.61085 F2340.000
G1 X93.190 Y53.839 E27.65077
G1 X94.144 Y52.965 E27.69072
G1 X95.184 Y52.196 E27.73065
G1 X96.298 Y51.540 E27.77057
G1 X97.475 Y51.004 E27.81051
G1 X98.701 Y50.594 E27.85045
G1 X99.964 Y50.314 E27.89038
G1 X101.249 Y50.168 E27.93031
G1 X102.000 Y50.143 E27.95352
G1 X118.000 Y50.143 E28.44758
G1 X118.542 Y50.157 E28.46432
G1 X119.829 Y50.281 E28.50426 F2340.000
G1 X121.096 Y50.540 E28.54419
G1 X122.525 Y51.004 E28.59058
G1 X123.702 Y51.540 E28.63051
G1 X124.816 Y52.196 E28.67044
G1 X125.856 Y52.965 E28.71038
G1 X126.810 Y53.838 E28.75031
G1 X127.667 Y54.806 E28.79024
G1 X128.304 Y55.684 E28.82371
G1 X128.960 Y56.798 E28.86365
G1 X129.496 Y57.975 E28.90358
G1 X129.906 Y59.201 E28.94351
G1 X130.186 Y60.464 E28.98344
G1 X130.332 Y61.749 E29.02338
G1 X130.357 Y62.500 E29.04658
G1 X130.357 Y143.500 E31.54778
G1 X130.332 Y144.251 E31.57099
G1 X130.219 Y145.329 E31.60446
G1 X129.960 Y146.596 E31.64439
G1 X129.496 Y148.025 E31.69078
G1 X129.055 Y149.016 E31.72426
G1 X128.418 Y150.141 E31.76419
G1 X127.535 Y151.356 E31.81057
G1 X126.810 Y152.162 E31.84406
G1 X125.856 Y153.035 E31.88398
G1 X124.641 Y153.918 E31.93037
G1 X123.527 Y154.549 E31.96989
G1 X122.525 Y154.996 E32.00377
G1 X121.095 Y155.461 E32.05021
G1 X119.829 Y155.719 E32.09009
G1 X118.751 Y155.832 E32.12358
G1 X118.000 Y155.857 E32.14678
G1 X102.000 Y155.857 E32.64084
G1 X101.246 Y155.832 E32.66413
G1 X100.171 Y155.719 E32.69753
G1 X98.701 Y155.406 E32.74391
G1 X97.475 Y154.996 E32.78385
G1 X96.484 Y154.555 E32.81732
G1 X95.359 Y153.918 E32.85725
G1 X94.308 Y153.168 E32.89714
G1 X93.331 Y152.302 E32.93745
G1 X92.333 Y151.193 E32.98351
G1 X91.581 Y150.140 E33.02348
G1 X90.951 Y149.027 E33.06296
G1 X90.504 Y148.025 E33.09684
G1 X90.094 Y146.799 E33.13677
G1 X89.781 Y145.329 E33.18317
G1 X89.668 Y144.251 E33.21664
G1 X89.643 Y143.500 E33.23985
G1 X89.643 Y62.500 E35.74104
G1 X89.668 Y61.749 E35.76425
G1 X89.781 Y60.671 E35.79772
G1 X90.094 Y59.201 E35.84413
G1 X90.504 Y57.974 E35.88406
G1 X90.945 Y56.985 E35.91752
G1 X91.559 Y55.898 E35.95606
G1 E33.95606 F2400.00000
G92 E0
G1 X119.078 Y122.401 F8400.000
G1 E2.00000 F2400.00000
G1 X119.086 Y143.452 E2.65003 F1755.000
G1 X119.057 Y143.725 E2.65849
G1 X118.980 Y143.963 E2.66622
G1 X118.789 Y144.243 E2.67668
G1 X118.656 Y144.362 E2.68220
G1 X118.439 Y144.488 E2.68995
G1 X118.134 Y144.575 E2.69974
G1 X102.048 Y144.586 E3.19647
G1 X101.775 Y144.557 E3.20493
G1 X101.537 Y144.480 E3.21265
G1 X101.260 Y144.291 E3.22303
G1 X101.064 Y144.041 E3.23282
G1 X100.962 Y143.812 E3.24056
G1 X100.914 Y143.452 E3.25177
G1 X100.914 Y62.548 E5.75001
G1 X100.945 Y62.251 E5.75922
G1 X101.074 Y61.938 E5.76969
G1 X101.293 Y61.679 E5.78016
G1 X101.581 Y61.501 E5.79063
G1 X101.887 Y61.425 E5.80035
G1 X118.204 Y61.436 E6.30421
G1 X118.440 Y61.513 E6.31185 F1755.000
G1 X118.656 Y61.638 E6.31957
G1 X118.789 Y61.757 E6.32509
G1 X118.936 Y61.960 E6.33281
G1 X119.028 Y62.166 E6.33979
G1 X119.075 Y62.387 E6.34677
G1 X119.065 Y83.702 E7.00494
G1 X118.988 Y83.938 E7.01260
G1 X118.868 Y84.143 E7.01995
G1 X118.708 Y84.321 E7.02734
G1 X118.562 Y84.426 E7.03288
G1 X118.249 Y84.555 E7.04335
G1 X117.952 Y84.586 E7.05256
G1 X114.970 Y84.586 E7.14464
G1 X114.243 Y84.634 E7.16715
G1 X113.831 Y84.701 E7.18002
G1 X113.099 Y84.898 E7.20344
G1 X112.418 Y85.179 E7.22619
G1 X112.031 Y85.384 E7.23970
G1 X111.429 Y85.785 E7.26203
G1 X111.101 Y86.052 E7.27509
G1 X110.807 Y86.328 E7.28756
G1 X110.316 Y86.887 E7.31053
G1 X110.073 Y87.226 E7.32341
G1 X109.693 Y87.884 E7.34687
G1 X109.378 Y88.651 E7.37248
G1 X109.201 Y89.335 E7.39430
G1 X109.134 Y89.743 E7.40705
G1 X109.086 Y90.470 E7.42956
G1 X109.086 Y115.530 E8.20338
G1 X109.134 Y116.272 E8.22635
G1 X109.285 Y117.031 E8.25025
G1 X109.534 Y117.764 E8.27415
G1 X109.876 Y118.458 E8.29804
G1 X110.306 Y119.102 E8.32194
G1 X110.816 Y119.683 E8.34582
G1 X111.370 Y120.169 E8.36857
G1 X111.724 Y120.425 E8.38207
G1 X112.350 Y120.788 E8.40441
G1 X112.749 Y120.970 E8.41793
G1 X113.469 Y121.215 E8.44142
G1 X114.228 Y121.366 E8.46532
G1 X114.970 Y121.414 E8.48829
G1 X117.953 Y121.414 E8.58039
G1 X118.315 Y121.464 E8.59169
G1 X118.619 Y121.611 E8.60213
G1 X118.803 Y121.777 E8.60976
G1 X118.936 Y121.960 E8.61674
G1 X119.028 Y122.167 E8.62374
G1 X119.069 Y122.357 E8.62976
G1 X119.435 Y122.380 F8400.000
G1 X119.443 Y143.471 E9.28101 F1755.000
G1 X119.408 Y143.799 E9.29121
G1 X119.311 Y144.100 E9.30096
G1 X119.256 Y144.208 E9.30472
G1 X119.061 Y144.475 E9.31492
G1 X118.859 Y144.658 E9.32333
G1 X118.585 Y144.816 E9.33309
G1 X118.296 Y144.910 E9.34249
G1 X118.163 Y144.932 E9.34664
G1 X102.029 Y144.943 E9.84485
G1 X101.701 Y144.908 E9.85504
G1 X101.400 Y144.811 E9.86479
G1 X101.292 Y144.756 E9.86855
G1 X101.026 Y144.562 E9.87870
G1 X100.932 Y144.467 E9.88284
G1 X100.753 Y144.220 E9.89224
G1 X100.625 Y143.931 E9.90201
G1 X100.593 Y143.814 E9.90576
G1 X100.557 Y143.471 E9.91642
G1 X100.557 Y62.529 E12.41581
G1 X100.593 Y62.186 E12.42647
G1 X100.625 Y62.069 E12.43022
G1 X100.759 Y61.767 E12.44043
G1 X100.825 Y61.665 E12.44418
G1 X101.046 Y61.419 E12.45439
G1 X101.141 Y61.342 E12.45814
G1 X101.427 Y61.177 E12.46835
G1 X101.541 Y61.134 E12.47210
G1 X101.850 Y61.068 E12.48185
G1 X118.154 Y61.067 E12.98531
G1 X118.287 Y61.088 E12.98947
G1 X118.586 Y61.185 E12.99917 F1755.000
G1 X118.859 Y61.342 E13.00892
G1 X119.061 Y61.525 E13.01732
G1 X119.247 Y61.780 E13.02707
G1 X119.369 Y62.055 E13.03637
G1 X119.432 Y62.349 E13.04566
G1 X119.432 Y83.665 E13.70387
G1 X119.413 Y83.785 E13.70763
G1 X119.316 Y84.084 E13.71733
G1 X119.158 Y84.355 E13.72701
G1 X118.954 Y84.581 E13.73640
G1 X118.733 Y84.741 E13.74482
G1 X118.432 Y84.875 E13.75502
G1 X118.314 Y84.907 E13.75878
G1 X117.971 Y84.943 E13.76944
G1 X114.982 Y84.943 E13.86174
G1 X114.284 Y84.989 E13.88334
G1 X113.907 Y85.051 E13.89513
G1 X113.214 Y85.237 E13.91729
G1 X112.570 Y85.502 E13.93880
G1 X112.214 Y85.691 E13.95122
G1 X111.642 Y86.073 E13.97247
G1 X111.337 Y86.321 E13.98463
G1 X111.064 Y86.577 E13.99617
G1 X110.596 Y87.109 E14.01806
G1 X110.374 Y87.420 E14.02985
G1 X110.015 Y88.042 E14.05204
G1 X109.717 Y88.765 E14.07616
G1 X109.551 Y89.409 E14.09672
G1 X109.489 Y89.784 E14.10844
G1 X109.443 Y90.482 E14.13004
G1 X109.443 Y115.518 E14.90314
G1 X109.489 Y116.226 E14.92503
G1 X109.631 Y116.939 E14.94748
G1 X109.865 Y117.627 E14.96993
G1 X110.186 Y118.279 E14.99238
G1 X110.590 Y118.884 E15.01483
G1 X111.070 Y119.430 E15.03727
G1 X111.593 Y119.890 E15.05878
G1 X111.919 Y120.125 E15.07120
G1 X112.514 Y120.470 E15.09246
G1 X112.881 Y120.638 E15.10489
G1 X113.561 Y120.869 E15.12709
G1 X114.274 Y121.011 E15.14954
G1 X114.982 Y121.057 E15.17143
G1 X117.971 Y121.057 E15.26374
G1 X118.303 Y121.091 E15.27405
G1 X118.434 Y121.125 E15.27820
G1 X118.724 Y121.254 E15.28800
G1 X118.837 Y121.326 E15.29215
G1 X119.070 Y121.537 E15.30184
G1 X119.247 Y121.780 E15.31114
G1 X119.370 Y122.055 E15.32045
G1 X119.430 Y122.336 E15.32930
G1 X119.791 Y122.359 F8400.000
G1 X119.800 Y143.490 E15.98177 F877.500
G1 X119.760 Y143.874 E15.99371
G1 X119.642 Y144.237 E16.00549
G1 X119.561 Y144.395 E16.01098
G1 X119.334 Y144.708 E16.02292
G1 X119.062 Y144.953 E16.03421
G1 X118.732 Y145.143 E16.04599
G1 X118.381 Y145.258 E16.05738
G1 X118.193 Y145.289 E16.06328
G1 X102.010 Y145.300 E16.56297
G1 X101.626 Y145.260 E16.57490
G1 X101.263 Y145.142 E16.58668
G1 X101.105 Y145.061 E16.59217
G1 X100.793 Y144.834 E16.60409
G1 X100.659 Y144.698 E16.60998
G1 X100.442 Y144.400 E16.62137
G1 X100.287 Y144.051 E16.63315
G1 X100.241 Y143.879 E16.63864
G1 X100.200 Y143.490 E16.65074
G1 X100.200 Y62.510 E19.15129
G1 X100.241 Y62.121 E19.16339
G1 X100.287 Y61.949 E19.16889
G1 X100.444 Y61.596 E19.18082
G1 X100.541 Y61.447 E19.18632
G1 X100.800 Y61.159 E19.19825
G1 X100.938 Y61.047 E19.20375
G1 X101.273 Y60.854 E19.21569
G1 X101.439 Y60.790 E19.22118
G1 X101.812 Y60.711 E19.23295
G1 X118.181 Y60.710 E19.73841
G1 X118.370 Y60.739 E19.74430
G1 X118.732 Y60.857 E19.75606 F877.500
G1 X119.062 Y61.047 E19.76784
G1 X119.334 Y61.292 E19.77913
G1 X119.558 Y61.601 E19.79090
G1 X119.711 Y61.944 E19.80252
G1 X119.789 Y62.312 E19.81413
G1 X119.789 Y83.693 E20.47436
G1 X119.761 Y83.869 E20.47986
G1 X119.644 Y84.231 E20.49162
G1 X119.448 Y84.567 E20.50362
G1 X119.200 Y84.841 E20.51501
G1 X119.058 Y84.956 E20.52067
G1 X118.904 Y85.056 E20.52633
G1 X118.551 Y85.213 E20.53826
G1 X118.379 Y85.259 E20.54376
G1 X117.990 Y85.300 E20.55586
G1 X114.993 Y85.300 E20.64837
G1 X114.324 Y85.344 E20.66907
G1 X113.982 Y85.400 E20.67978
G1 X113.328 Y85.576 E20.70069
G1 X112.722 Y85.826 E20.72095
G1 X112.397 Y85.998 E20.73229
G1 X111.854 Y86.360 E20.75246
G1 X111.572 Y86.590 E20.76370
G1 X111.321 Y86.825 E20.77432
G1 X110.876 Y87.332 E20.79512
G1 X110.674 Y87.614 E20.80583
G1 X110.336 Y88.200 E20.82674
G1 X110.057 Y88.878 E20.84937
G1 X109.900 Y89.483 E20.86868
G1 X109.844 Y89.824 E20.87936
G1 X109.800 Y90.493 E20.90007
G1 X109.800 Y115.507 E21.67244
G1 X109.844 Y116.179 E21.69325
G1 X109.977 Y116.846 E21.71425
G1 X110.195 Y117.490 E21.73526
G1 X110.496 Y118.100 E21.75626
G1 X110.874 Y118.666 E21.77727
G1 X111.323 Y119.177 E21.79827
G1 X111.816 Y119.610 E21.81853
